; generated by Slic3r 1.3.1-dev on 2018-10-09 at 14:26:30

; Filament notes: 
; Test mit verschiedenen Temperaturen:
; 
; erste Lage wird problemlos gedruckt. Danach kommt der Extruder ins stocken
; --> es gibt einen Pfropfen, der die Düse verstopft.
; 
; Test mit 180°C
; 
; ==>wenn zu nahe am Bett prozessiert wird kann die Düse verstopfen.
; 
; external perimeters extrusion width = 0.45mm (2.44mm^3/s)
; perimeters extrusion width = 0.45mm (3.26mm^3/s)
; infill extrusion width = 0.45mm (4.88mm^3/s)
; solid infill extrusion width = 0.45mm (3.26mm^3/s)
; top infill extrusion width = 0.40mm (2.14mm^3/s)

M107
;M115 U3.0.10 ; tell printer latest fw version
M83  ; extruder relative mode
M104 S215 ; set extruder temp
M140 S55 ; set bed temp
M190 S55 ; wait for bed temp
M109 S215 ; wait for extruder temp
G28 W ; home all without mesh bed level
;G80 ; mesh bed leveling
;G1 Y-3.0 F1000.0 ; go outside pritn area
;G1 X60.0 E9.0  F1000.0 ; intro line
;G1 X100.0 E12.5  F1000.0 ; intro line
; Filament gcode

G21 ; set units to millimeters
G90 ; use absolute coordinates
M83 ; use relative distances for extrusion
G1 E-2.00000 F2100.00000
G1 Z0.200 F7200.000
G1 X106.280 Y132.067 F7200.000
G1 E2.00000 F2100.00000
M204 S1000
G1 F2100
G1 X107.575 Y131.743 E0.04186
G1 X127.575 Y131.743 E0.62709
G1 X128.992 Y132.136 E0.04612
G1 X130.006 Y133.202 E0.04612
G1 X130.329 Y134.497 E0.04186
G1 X130.329 Y154.497 E0.62709
G1 X129.936 Y155.915 E0.04612
G1 X128.870 Y156.928 E0.04612
G1 X127.575 Y157.252 E0.04186
G1 X107.575 Y157.252 E0.62709
G1 X106.158 Y156.859 E0.04612
G1 X105.144 Y155.793 E0.04612
G1 X104.821 Y154.497 E0.04186
G1 X104.821 Y134.497 E0.62709
G1 X105.214 Y133.080 E0.04612
G1 X106.236 Y132.108 E0.04424
G1 X106.635 Y132.314 F7200.000
G1 F2100
G1 X107.575 Y132.120 E0.03008
G1 X127.575 Y132.120 E0.62709
G1 X128.882 Y132.512 E0.04278
G1 X129.758 Y133.558 E0.04278
G1 X129.952 Y134.497 E0.03008
G1 X129.952 Y154.497 E0.62709
G1 X129.560 Y155.804 E0.04278
G1 X128.515 Y156.681 E0.04278
G1 X127.575 Y156.874 E0.03008
G1 X107.575 Y156.874 E0.62709
G1 X106.268 Y156.483 E0.04278
G1 X105.392 Y155.437 E0.04278
G1 X105.198 Y154.497 E0.03008
G1 X105.198 Y134.497 E0.62709
G1 X105.589 Y133.190 E0.04278
G1 X106.589 Y132.353 E0.04090
G1 E-2.00000 F2100.00000
G1 X126.039 Y153.437 F7200.000
G1 E2.00000 F2100.00000
G1 F1680
G1 X124.970 Y152.962 E0.03667
G1 X110.180 Y152.962 E0.46375
G1 X109.111 Y153.437 E0.03667
G1 X109.111 Y152.962 E0.01489
G1 X108.636 Y152.962 E0.01489
G1 X109.111 Y151.893 E0.03667
G1 X109.111 Y137.102 E0.46375
G1 X108.636 Y136.033 E0.03667
G1 X109.111 Y136.033 E0.01489
G1 X109.111 Y135.558 E0.01490
G1 X110.180 Y136.033 E0.03667
G1 X124.970 Y136.033 E0.46375
G1 X126.039 Y135.558 E0.03667
G1 X126.039 Y136.033 E0.01489
G1 X126.514 Y136.033 E0.01489
G1 X126.039 Y137.102 E0.03667
G1 X126.039 Y151.893 E0.46375
G1 X126.514 Y152.962 E0.03667
G1 X126.039 Y152.962 E0.01489
G1 X126.039 Y153.377 E0.01301
G1 X125.662 Y152.856 F7200.000
G1 F1680
G1 X125.050 Y152.584 E0.02099
G1 X110.100 Y152.584 E0.46877
G1 X109.488 Y152.856 E0.02099
G1 X109.488 Y152.584 E0.00852
G1 X109.216 Y152.584 E0.00852
G1 X109.488 Y151.973 E0.02099
G1 X109.488 Y137.022 E0.46877
G1 X109.216 Y136.410 E0.02099
G1 X109.488 Y136.410 E0.00852
G1 X109.488 Y136.138 E0.00852
G1 X110.100 Y136.410 E0.02099
G1 X125.050 Y136.410 E0.46877
G1 X125.662 Y136.138 E0.02099
G1 X125.662 Y136.410 E0.00852
G1 X125.934 Y136.410 E0.00852
G1 X125.662 Y137.022 E0.02099
G1 X125.662 Y151.973 E0.46877
G1 X125.934 Y152.584 E0.02099
G1 X125.662 Y152.584 E0.00852
G1 X125.662 Y152.796 E0.00664
G1 X125.354 Y152.207 F7200.000
G1 F1260
G1 X125.285 Y152.207 E0.00215
G1 X125.285 Y152.276 E0.00215
G1 X125.130 Y152.207 E0.00530
G1 X110.020 Y152.207 E0.47379
G1 X109.865 Y152.276 E0.00530
G1 X109.865 Y152.207 E0.00215
G1 X109.796 Y152.207 E0.00215
G1 X109.865 Y152.053 E0.00530
G1 X109.865 Y136.942 E0.47379
G1 X109.796 Y136.787 E0.00530
G1 X109.865 Y136.787 E0.00215
G1 X109.865 Y136.719 E0.00215
G1 X110.020 Y136.787 E0.00530
G1 X125.130 Y136.787 E0.47379
G1 X125.285 Y136.719 E0.00530
G1 X125.285 Y136.787 E0.00215
G1 X125.354 Y136.787 E0.00215
G1 X125.285 Y136.942 E0.00530
G1 X125.285 Y152.053 E0.47379
G1 X125.329 Y152.153 E0.00342
G1 X125.354 Y152.276 F7200.000
G1 X126.611 Y153.533 F7200.000
G1 F1680
G1 X108.539 Y153.533 E0.56663
G1 X108.539 Y135.462 E0.56663
G1 X126.611 Y135.462 E0.56663
G1 X126.611 Y153.473 E0.56474
G1 X126.988 Y153.910 F7200.000
G1 F1680
G1 X108.162 Y153.910 E0.59027
G1 X108.162 Y135.084 E0.59027
G1 X126.988 Y135.084 E0.59027
G1 X126.988 Y153.850 E0.58839
G1 X127.365 Y154.287 F7200.000
G1 F1260
G1 X107.785 Y154.287 E0.61392
G1 X107.785 Y134.707 E0.61392
G1 X127.365 Y134.707 E0.61392
G1 X127.365 Y154.227 E0.61204
G1 X126.979 Y154.184 F7200.000
G1 X126.325 Y152.072 F7200.000
G1 F1680
G1 X126.325 Y136.923 E0.19107
G1 X125.149 Y135.747 F7200.000
G1 F1680
G1 X110.001 Y135.747 E0.19107
G1 X108.825 Y136.923 F7200.000
G1 F1680
G1 X108.825 Y152.072 E0.19106
G1 X110.001 Y153.247 F7200.000
G1 F1680
G1 X125.149 Y153.247 E0.19107
M104 S210 ; set temperature
M140 S45 ; set bed temperature
G1 E-2.00000 F2100.00000
G1 Z0.400 F7200.000
G1 X125.914 Y152.629 F7200.000
G1 E2.00000 F2100.00000
M204 S800
G1 F2400
G1 X125.707 Y152.629 E0.00701
G1 X125.707 Y152.837 E0.00701
G1 X125.241 Y152.629 E0.01727
G1 X109.909 Y152.629 E0.51896
G1 X109.443 Y152.837 E0.01727
G1 X109.443 Y152.629 E0.00701
G1 X109.236 Y152.629 E0.00701
G1 X109.443 Y152.163 E0.01727
G1 X109.443 Y136.832 E0.51896
G1 X109.236 Y136.365 E0.01727
G1 X109.443 Y136.365 E0.00701
G1 X109.443 Y136.158 E0.00701
G1 X109.909 Y136.365 E0.01727
G1 X125.241 Y136.365 E0.51896
G1 X125.707 Y136.158 E0.01727
G1 X125.707 Y136.365 E0.00701
G1 X125.914 Y136.365 E0.00701
G1 X125.707 Y136.832 E0.01727
G1 X125.707 Y152.163 E0.51896
G1 X125.890 Y152.575 E0.01524
M204 S1000
G1 X125.288 Y152.222 F7200.000
M204 S800
G1 F1800
G1 X109.862 Y152.222 E0.52214
G1 X109.850 Y136.785 E0.52255
G1 X125.288 Y136.772 E0.52255
G1 X125.300 Y152.198 E0.52214
M204 S1000
G1 X125.288 Y152.622 F7200.000
G1 E-2.00000 F2100.00000
G1 X109.036 Y135.958 F7200.000
G1 E2.00000 F2100.00000
M204 S800
G1 F1200
G1 X108.614 Y135.958 E0.01427
G1 X108.614 Y135.537 E0.01427
G1 X109.036 Y135.537 E0.01427
G1 X109.036 Y135.898 E0.01224
M204 S1000
G1 X108.614 Y135.969 F7200.000
M204 S800
G1 F1200
G1 X109.036 Y136.918 E0.03514
G1 X109.036 Y152.077 E0.51311
G1 X108.614 Y153.026 E0.03515
G1 X108.614 Y136.029 E0.57531
M204 S1000
G1 X109.047 Y135.537 F7200.000
M204 S800
G1 F1200
G1 X126.103 Y135.537 E0.57734
G1 X125.154 Y135.958 E0.03515
G1 X109.995 Y135.958 E0.51311
G1 X109.102 Y135.561 E0.03311
M204 S1000
G1 E-2.00000 F2100.00000
G1 X126.114 Y135.537 F7200.000
G1 E2.00000 F2100.00000
M204 S800
G1 F1200
G1 X126.536 Y135.537 E0.01427
G1 X126.536 Y135.958 E0.01427
G1 X126.114 Y135.958 E0.01427
G1 X126.114 Y135.597 E0.01224
M204 S1000
G1 X126.536 Y135.969 F7200.000
M204 S800
G1 F1200
G1 X126.536 Y153.026 E0.57734
G1 X126.114 Y152.077 E0.03514
G1 X126.114 Y136.918 E0.51311
G1 X126.511 Y136.024 E0.03311
M204 S1000
G1 E-2.00000 F2100.00000
G1 X126.536 Y153.037 F7200.000
G1 E2.00000 F2100.00000
M204 S800
G1 F1200
G1 X126.536 Y153.458 E0.01427
G1 X126.114 Y153.458 E0.01427
G1 X126.114 Y153.037 E0.01427
G1 X126.476 Y153.037 E0.01224
M204 S1000
G1 X126.103 Y153.458 F7200.000
M204 S800
G1 F1200
G1 X109.047 Y153.458 E0.57734
G1 X109.995 Y153.037 E0.03514
G1 X125.154 Y153.037 E0.51311
G1 X126.048 Y153.434 E0.03312
M204 S1000
G1 E-2.00000 F2100.00000
G1 X109.036 Y153.458 F7200.000
G1 E2.00000 F2100.00000
M204 S800
G1 F1200
G1 X108.614 Y153.458 E0.01427
G1 X108.614 Y153.037 E0.01427
G1 X109.036 Y153.037 E0.01427
G1 X109.036 Y153.398 E0.01224
M204 S1000
G1 X108.207 Y153.865 F7200.000
M204 S800
G1 F2400
G1 X108.207 Y135.129 E0.63419
G1 X126.943 Y135.129 E0.63419
G1 X126.943 Y153.865 E0.63419
G1 X108.267 Y153.865 E0.63216
M204 S1000
G1 X107.800 Y154.272 F7200.000
M204 S800
G1 F1800
G1 X107.800 Y134.722 E0.66174
G1 X127.350 Y134.722 E0.66174
G1 X127.350 Y154.272 E0.66174
G1 X107.860 Y154.272 E0.65971
M204 S1000
G1 X107.903 Y153.886 F7200.000
M106 S249.9
G1 E-2.00000 F2100.00000
G1 Z0.600 F7200.000
G1 X108.698 Y153.037 F7200.000
G1 E2.00000 F2100.00000
M204 S800
G1 F2400
G1 X109.036 Y152.277 E0.02814
G1 X109.036 Y136.718 E0.52665
G1 X108.698 Y135.958 E0.02814
G1 X109.036 Y135.958 E0.01143
G1 X109.036 Y135.621 E0.01143
G1 X109.795 Y135.958 E0.02814
G1 X125.354 Y135.958 E0.52665
G1 X126.114 Y135.621 E0.02814
G1 X126.114 Y135.958 E0.01143
G1 X126.452 Y135.958 E0.01143
G1 X126.114 Y136.718 E0.02814
G1 X126.114 Y152.277 E0.52665
G1 X126.452 Y153.037 E0.02814
G1 X126.114 Y153.037 E0.01143
G1 X126.114 Y153.374 E0.01143
G1 X125.354 Y153.037 E0.02814
G1 X109.795 Y153.037 E0.52665
G1 X109.036 Y153.374 E0.02814
G1 X109.036 Y153.037 E0.01143
G1 X108.758 Y153.037 E0.00940
M204 S1000
G1 X109.443 Y152.748 F7200.000
M204 S800
G1 F2400
G1 X109.443 Y152.629 E0.00400
G1 X109.325 Y152.629 E0.00400
G1 X109.443 Y152.363 E0.00986
G1 X109.443 Y136.632 E0.53250
G1 X109.325 Y136.365 E0.00986
G1 X109.443 Y136.365 E0.00401
G1 X109.443 Y136.247 E0.00401
G1 X109.709 Y136.365 E0.00986
G1 X125.441 Y136.365 E0.53250
G1 X125.707 Y136.247 E0.00986
G1 X125.707 Y136.365 E0.00400
G1 X125.825 Y136.365 E0.00400
G1 X125.707 Y136.632 E0.00986
G1 X125.707 Y152.363 E0.53250
G1 X125.825 Y152.629 E0.00986
G1 X125.707 Y152.629 E0.00400
G1 X125.707 Y152.748 E0.00400
G1 X125.441 Y152.629 E0.00986
G1 X109.709 Y152.629 E0.53250
G1 X109.498 Y152.723 E0.00783
M204 S1000
G1 X109.850 Y152.121 F7200.000
M204 S800
G1 F1800
G1 X109.850 Y136.873 E0.51613
G1 X110.032 Y136.954 E0.00673
G1 X109.951 Y136.772 E0.00673
G1 X125.199 Y136.772 E0.51613
G1 X125.118 Y136.954 E0.00673
G1 X125.300 Y136.873 E0.00673
G1 X125.300 Y152.121 E0.51613
G1 X125.118 Y152.041 E0.00673
G1 X125.199 Y152.222 E0.00673
G1 X109.951 Y152.222 E0.51613
G1 X110.032 Y152.041 E0.00673
G1 X109.905 Y152.097 E0.00470
M204 S1000
G1 X109.464 Y152.018 F7200.000
G1 X108.614 Y153.458 F7200.000
M204 S800
G1 F2400
G1 X108.614 Y135.537 E0.60663
G1 X126.536 Y135.537 E0.60663
G1 X126.536 Y153.458 E0.60663
G1 X108.674 Y153.458 E0.60460
M204 S1000
G1 X108.207 Y153.865 F7200.000
M204 S800
G1 F2400
G1 X108.207 Y135.129 E0.63419
G1 X126.943 Y135.129 E0.63419
G1 X126.943 Y153.865 E0.63419
G1 X108.267 Y153.865 E0.63216
M204 S1000
G1 X107.800 Y154.272 F7200.000
M204 S800
G1 F1800
G1 X107.800 Y134.722 E0.66174
G1 X127.350 Y134.722 E0.66174
G1 X127.350 Y154.272 E0.66174
G1 X107.860 Y154.272 E0.65971
M204 S1000
G1 X107.903 Y153.886 F7200.000
G1 E-2.00000 F2100.00000
G1 Z0.800 F7200.000
G1 X108.787 Y153.037 F7200.000
G1 E2.00000 F2100.00000
M204 S800
G1 F2400
G1 X109.036 Y152.477 E0.02073
G1 X109.036 Y136.518 E0.54019
G1 X108.787 Y135.958 E0.02073
G1 X109.036 Y135.958 E0.00842
G1 X109.036 Y135.709 E0.00842
G1 X109.595 Y135.958 E0.02073
G1 X125.554 Y135.958 E0.54019
G1 X126.114 Y135.709 E0.02073
G1 X126.114 Y135.958 E0.00842
G1 X126.363 Y135.958 E0.00842
G1 X126.114 Y136.518 E0.02073
G1 X126.114 Y152.477 E0.54019
G1 X126.363 Y153.037 E0.02073
G1 X126.114 Y153.037 E0.00842
G1 X126.114 Y153.285 E0.00842
G1 X125.554 Y153.037 E0.02073
G1 X109.595 Y153.037 E0.54019
G1 X109.036 Y153.285 E0.02073
G1 X109.036 Y153.037 E0.00842
G1 X108.847 Y153.037 E0.00639
M204 S1000
G1 X109.443 Y152.659 F7200.000
M204 S800
G1 F2400
G1 X109.443 Y152.629 E0.00100
G1 X109.413 Y152.629 E0.00100
G1 X109.443 Y152.563 E0.00245
G1 X109.443 Y136.432 E0.54604
G1 X109.413 Y136.365 E0.00245
G1 X109.443 Y136.365 E0.00100
G1 X109.443 Y136.336 E0.00100
G1 X109.509 Y136.365 E0.00245
G1 X125.641 Y136.365 E0.54604
G1 X125.707 Y136.336 E0.00245
G1 X125.707 Y136.365 E0.00100
G1 X125.736 Y136.365 E0.00100
G1 X125.707 Y136.432 E0.00245
G1 X125.707 Y152.563 E0.54604
G1 X125.736 Y152.629 E0.00245
G1 X125.707 Y152.629 E0.00100
G1 X125.707 Y152.659 E0.00100
G1 X125.641 Y152.629 E0.00245
G1 X109.498 Y152.635 E0.54643
M204 S1000
G1 X109.850 Y152.033 F7200.000
M204 S800
G1 F1800
G1 X109.850 Y136.962 E0.51011
G1 X110.192 Y137.114 E0.01266
G1 X110.040 Y136.772 E0.01266
G1 X125.110 Y136.772 E0.51011
G1 X124.958 Y137.114 E0.01266
G1 X125.300 Y136.962 E0.01266
G1 X125.300 Y152.033 E0.51011
G1 X124.958 Y151.881 E0.01266
G1 X125.110 Y152.222 E0.01266
G1 X110.040 Y152.222 E0.51011
G1 X110.192 Y151.881 E0.01266
G1 X109.905 Y152.008 E0.01063
M204 S1000
G1 X109.464 Y151.929 F7200.000
G1 X108.614 Y153.458 F7200.000
M204 S800
G1 F2400
G1 X108.614 Y135.537 E0.60663
G1 X126.536 Y135.537 E0.60663
G1 X126.536 Y153.458 E0.60663
G1 X108.674 Y153.458 E0.60460
M204 S1000
G1 X108.207 Y153.865 F7200.000
M204 S800
G1 F2400
G1 X108.207 Y135.129 E0.63419
G1 X126.943 Y135.129 E0.63419
G1 X126.943 Y153.865 E0.63419
G1 X108.267 Y153.865 E0.63216
M204 S1000
G1 X107.800 Y154.272 F7200.000
M204 S800
G1 F1800
G1 X107.800 Y134.722 E0.66174
G1 X127.350 Y134.722 E0.66174
G1 X127.350 Y154.272 E0.66174
G1 X107.860 Y154.272 E0.65971
M204 S1000
G1 X107.903 Y153.886 F7200.000
G1 E-2.00000 F2100.00000
G1 Z1.000 F7200.000
G1 X109.036 Y153.196 F7200.000
G1 E2.00000 F2100.00000
M204 S800
G1 F2400
G1 X109.036 Y153.037 E0.00541
G1 X108.876 Y153.037 E0.00541
G1 X109.036 Y152.677 E0.01332
G1 X109.036 Y136.318 E0.55373
G1 X108.876 Y135.958 E0.01332
G1 X109.036 Y135.958 E0.00541
G1 X109.036 Y135.798 E0.00541
G1 X109.395 Y135.958 E0.01332
G1 X125.754 Y135.958 E0.55373
G1 X126.114 Y135.798 E0.01332
G1 X126.114 Y135.958 E0.00541
G1 X126.274 Y135.958 E0.00541
G1 X126.114 Y136.318 E0.01332
G1 X126.114 Y152.677 E0.55373
G1 X126.274 Y153.037 E0.01332
G1 X126.114 Y153.037 E0.00541
G1 X126.114 Y153.196 E0.00541
G1 X125.754 Y153.037 E0.01332
G1 X109.395 Y153.037 E0.55373
G1 X109.091 Y153.172 E0.01129
M204 S1000
G1 X109.443 Y152.570 F7200.000
M204 S800
G1 F2400
G1 X109.443 Y136.425 E0.54650
G1 X109.550 Y136.472 E0.00396
G1 X109.502 Y136.365 E0.00396
G1 X125.648 Y136.365 E0.54650
G1 X125.600 Y136.472 E0.00396
G1 X125.707 Y136.425 E0.00396
G1 X125.707 Y152.570 E0.54650
G1 X125.600 Y152.522 E0.00396
G1 X125.648 Y152.629 E0.00396
G1 X109.502 Y152.629 E0.54650
G1 X109.550 Y152.522 E0.00396
G1 X109.498 Y152.546 E0.00193
M204 S1000
G1 X109.850 Y151.944 F7200.000
M204 S800
G1 F1800
G1 X109.850 Y137.051 E0.50409
G1 X110.352 Y137.274 E0.01859
G1 X110.129 Y136.772 E0.01859
G1 X125.021 Y136.772 E0.50409
G1 X124.798 Y137.274 E0.01859
G1 X125.300 Y137.051 E0.01859
G1 X125.300 Y151.944 E0.50409
G1 X124.798 Y151.721 E0.01859
G1 X125.021 Y152.222 E0.01859
G1 X110.129 Y152.222 E0.50409
G1 X110.352 Y151.721 E0.01859
G1 X109.905 Y151.919 E0.01656
M204 S1000
G1 X109.464 Y151.840 F7200.000
G1 X108.614 Y153.458 F7200.000
M204 S800
G1 F2400
G1 X108.614 Y135.537 E0.60663
G1 X126.536 Y135.537 E0.60663
G1 X126.536 Y153.458 E0.60663
G1 X108.674 Y153.458 E0.60460
M204 S1000
G1 X108.207 Y153.865 F7200.000
M204 S800
G1 F2400
G1 X108.207 Y135.129 E0.63419
G1 X126.943 Y135.129 E0.63419
G1 X126.943 Y153.865 E0.63419
G1 X108.267 Y153.865 E0.63216
M204 S1000
G1 X107.800 Y154.272 F7200.000
M204 S800
G1 F1800
G1 X107.800 Y134.722 E0.66174
G1 X127.350 Y134.722 E0.66174
G1 X127.350 Y154.272 E0.66174
G1 X107.860 Y154.272 E0.65971
M204 S1000
G1 X107.903 Y153.886 F7200.000
G1 E-2.00000 F2100.00000
G1 Z1.500 F7200.000
G1 X109.036 Y153.108 F7200.000
G1 Z1.200 F7200.000
G1 E2.00000 F2100.00000
M204 S800
G1 F2400
G1 X109.036 Y153.037 E0.00240
G1 X108.965 Y153.037 E0.00240
G1 X109.036 Y152.877 E0.00591
G1 X109.036 Y136.118 E0.56727
G1 X108.965 Y135.958 E0.00591
G1 X109.036 Y135.958 E0.00240
G1 X109.036 Y135.887 E0.00240
