; generated by Slic3r 1.3.1-dev on 2018-09-10 at 13:09:09

; Filament notes: 
; Test mit verschiedenen Temperaturen:
; 
; erste Lage wird problemlos gedruckt. Danach kommt der Extruder ins stocken
; --> es gibt einen Pfropfen, der die Düse verstopft.
; 
; Test mit 180°C
; 
; ==>wenn zu nahe am Bett prozessiert wird kann die Düse verstopfen.
; 
; external perimeters extrusion width = 0.45mm (2.44mm^3/s)
; perimeters extrusion width = 0.45mm (3.26mm^3/s)
; infill extrusion width = 0.45mm (4.88mm^3/s)
; solid infill extrusion width = 0.45mm (3.26mm^3/s)
; top infill extrusion width = 0.40mm (2.14mm^3/s)

;M115 U3.0.10 ; tell printer latest fw version
M83  ; extruder relative mode
M104 S200 ; set extruder temp
M140 S55 ; set bed temp
M190 S55 ; wait for bed temp
M109 S200 ; wait for extruder temp
G28 W ; home all without mesh bed level
;G80 ; mesh bed leveling
;G1 Y-3.0 F1000.0 ; go outside pritn area
;G1 X60.0 E9.0  F1000.0 ; intro line
;G1 X100.0 E12.5  F1000.0 ; intro line
; Filament gcode

G21 ; set units to millimeters
G90 ; use absolute coordinates
M83 ; use relative distances for extrusion
M106 S229.5
G1 E-2.00000 F2100.00000
G1 Z0.200 F7200.000
G1 X153.094 Y168.526 F7200.000
G1 E2.00000 F2100.00000
M204 S1000
G1 F2100
G1 X154.140 Y167.649 E0.04278
G1 X155.080 Y167.456 E0.03008
G1 X185.080 Y167.456 E0.94063
G1 X186.387 Y167.847 E0.04278
G1 X187.263 Y168.893 E0.04278
G1 X187.457 Y169.833 E0.03008
G1 X187.457 Y199.833 E0.94063
G1 X187.065 Y201.140 E0.04278
G1 X186.020 Y202.016 E0.04278
G1 X185.080 Y202.210 E0.03008
G1 X155.080 Y202.210 E0.94063
G1 X153.773 Y201.818 E0.04278
G1 X152.896 Y200.772 E0.04278
G1 X152.703 Y199.833 E0.03008
G1 X152.703 Y169.833 E0.94063
G1 X153.077 Y168.583 E0.04090
G1 E-2.00000 F2100.00000
G1 X182.294 Y197.522 F7200.000
G1 E2.00000 F2100.00000
G1 F1680
G1 X181.225 Y197.047 E0.03667
G1 X158.935 Y197.047 E0.69891
G1 X157.866 Y197.522 E0.03667
G1 X157.866 Y197.047 E0.01489
G1 X157.391 Y197.047 E0.01489
G1 X157.866 Y195.978 E0.03667
G1 X157.866 Y173.687 E0.69891
G1 X157.391 Y172.619 E0.03667
G1 X157.866 Y172.619 E0.01489
G1 X157.866 Y172.144 E0.01490
G1 X158.935 Y172.619 E0.03667
G1 X181.225 Y172.619 E0.69891
G1 X182.294 Y172.144 E0.03667
G1 X182.294 Y172.619 E0.01489
G1 X182.769 Y172.619 E0.01489
G1 X182.294 Y173.687 E0.03667
G1 X182.294 Y195.978 E0.69891
G1 X182.769 Y197.047 E0.03667
G1 X182.294 Y197.047 E0.01489
G1 X182.294 Y197.462 E0.01301
G1 X181.917 Y196.942 F7200.000
G1 F1680
G1 X181.305 Y196.670 E0.02099
G1 X158.854 Y196.670 E0.70393
G1 X158.243 Y196.942 E0.02099
G1 X158.243 Y196.670 E0.00852
G1 X157.971 Y196.670 E0.00852
G1 X158.243 Y196.058 E0.02099
G1 X158.243 Y173.607 E0.70393
G1 X157.971 Y172.996 E0.02099
G1 X158.243 Y172.996 E0.00852
G1 X158.243 Y172.724 E0.00852
G1 X158.854 Y172.996 E0.02099
G1 X181.305 Y172.996 E0.70393
G1 X181.917 Y172.724 E0.02099
G1 X181.917 Y172.996 E0.00852
G1 X182.189 Y172.996 E0.00852
G1 X181.917 Y173.607 E0.02099
G1 X181.917 Y196.058 E0.70393
G1 X182.189 Y196.670 E0.02099
G1 X181.917 Y196.670 E0.00852
G1 X181.917 Y196.882 E0.00664
G1 X181.609 Y196.293 F7200.000
G1 F1260
G1 X181.540 Y196.293 E0.00215
G1 X181.540 Y196.361 E0.00215
G1 X181.385 Y196.293 E0.00530
G1 X158.774 Y196.293 E0.70895
G1 X158.620 Y196.361 E0.00530
G1 X158.620 Y196.293 E0.00215
G1 X158.551 Y196.293 E0.00215
G1 X158.620 Y196.138 E0.00530
G1 X158.620 Y173.527 E0.70895
G1 X158.551 Y173.373 E0.00530
G1 X158.620 Y173.373 E0.00215
G1 X158.620 Y173.304 E0.00215
G1 X158.774 Y173.373 E0.00530
G1 X181.385 Y173.373 E0.70895
G1 X181.540 Y173.304 E0.00530
G1 X181.540 Y173.373 E0.00215
G1 X181.609 Y173.373 E0.00215
G1 X181.540 Y173.527 E0.00530
G1 X181.540 Y196.138 E0.70895
G1 X181.584 Y196.238 E0.00342
G1 X181.609 Y196.361 F7200.000
G1 X184.116 Y198.869 F7200.000
G1 F1680
G1 X156.044 Y198.869 E0.88017
G1 X156.044 Y170.797 E0.88017
G1 X184.116 Y170.797 E0.88017
G1 X184.116 Y198.809 E0.87829
G1 X184.493 Y199.246 F7200.000
G1 F1680
G1 X155.667 Y199.246 E0.90381
G1 X155.667 Y170.420 E0.90381
G1 X184.493 Y170.420 E0.90381
G1 X184.493 Y199.186 E0.90193
G1 X184.870 Y199.623 F7200.000
G1 F1260
G1 X155.290 Y199.623 E0.92746
G1 X155.290 Y170.043 E0.92746
G1 X184.870 Y170.043 E0.92746
G1 X184.870 Y199.563 E0.92558
G1 X184.484 Y199.519 F7200.000
G1 X183.672 Y198.558 F7200.000
G1 F1680
G1 X183.805 Y198.425 E0.00594
G1 X183.805 Y197.889 E0.01687
G1 X183.136 Y198.558 E0.02980
G1 X182.601 Y198.558 E0.01687
G1 X183.805 Y197.353 E0.05366
G1 X183.805 Y196.818 E0.01687
G1 X183.236 Y197.387 E0.02534
G1 X183.072 Y197.016 E0.01278
G1 X183.805 Y196.282 E0.03268
G1 X183.805 Y195.747 E0.01687
G1 X182.907 Y196.645 E0.04002
G1 X182.742 Y196.274 E0.01278
G1 X183.805 Y195.211 E0.04736
G1 X183.805 Y194.675 E0.01687
G1 X182.604 Y195.876 E0.05349
G1 X182.604 Y195.341 E0.01687
G1 X183.805 Y194.140 E0.05349
G1 X183.805 Y193.604 E0.01687
G1 X182.604 Y194.805 E0.05349
G1 X182.604 Y194.269 E0.01687
G1 X183.805 Y193.068 E0.05349
G1 X183.805 Y192.533 E0.01687
G1 X182.604 Y193.734 E0.05349
G1 X182.604 Y193.198 E0.01687
G1 X183.805 Y191.997 E0.05349
G1 X183.805 Y191.461 E0.01687
G1 X182.604 Y192.662 E0.05349
G1 X182.604 Y192.127 E0.01687
G1 X183.805 Y190.926 E0.05349
G1 X183.805 Y190.390 E0.01687
G1 X182.604 Y191.591 E0.05349
G1 X182.604 Y191.055 E0.01687
G1 X183.805 Y189.855 E0.05349
G1 X183.805 Y189.319 E0.01687
G1 X182.604 Y190.520 E0.05349
G1 X182.604 Y189.984 E0.01687
G1 X183.805 Y188.783 E0.05349
G1 X183.805 Y188.248 E0.01687
G1 X182.604 Y189.449 E0.05349
G1 X182.604 Y188.913 E0.01687
G1 X183.805 Y187.712 E0.05349
G1 X183.805 Y187.176 E0.01687
G1 X182.604 Y188.377 E0.05349
G1 X182.604 Y187.842 E0.01687
G1 X183.805 Y186.641 E0.05349
G1 X183.805 Y186.105 E0.01687
G1 X182.604 Y187.306 E0.05349
G1 X182.604 Y186.770 E0.01687
G1 X183.805 Y185.569 E0.05349
G1 X183.805 Y185.034 E0.01687
G1 X182.604 Y186.235 E0.05349
G1 X182.604 Y185.699 E0.01687
G1 X183.805 Y184.498 E0.05349
G1 X183.805 Y183.963 E0.01687
G1 X182.604 Y185.163 E0.05349
G1 X182.604 Y184.628 E0.01687
G1 X183.805 Y183.427 E0.05349
G1 X183.805 Y182.891 E0.01687
G1 X182.604 Y184.092 E0.05349
G1 X182.604 Y183.557 E0.01687
G1 X183.805 Y182.356 E0.05349
G1 X183.805 Y181.820 E0.01687
G1 X182.604 Y183.021 E0.05349
G1 X182.604 Y182.485 E0.01687
G1 X183.805 Y181.284 E0.05349
G1 X183.805 Y180.749 E0.01687
G1 X182.604 Y181.950 E0.05349
G1 X182.604 Y181.414 E0.01687
G1 X183.805 Y180.213 E0.05349
G1 X183.805 Y179.678 E0.01687
G1 X182.604 Y180.878 E0.05349
G1 X182.604 Y180.343 E0.01687
G1 X183.805 Y179.142 E0.05349
G1 X183.805 Y178.606 E0.01687
G1 X182.604 Y179.807 E0.05349
G1 X182.604 Y179.271 E0.01687
G1 X183.805 Y178.071 E0.05349
G1 X183.805 Y177.535 E0.01687
G1 X182.604 Y178.736 E0.05349
G1 X182.604 Y178.200 E0.01687
G1 X183.805 Y176.999 E0.05349
G1 X183.805 Y176.464 E0.01687
G1 X182.604 Y177.665 E0.05349
G1 X182.604 Y177.129 E0.01687
G1 X183.805 Y175.928 E0.05349
G1 X183.805 Y175.392 E0.01687
G1 X182.604 Y176.593 E0.05349
G1 X182.604 Y176.058 E0.01687
G1 X183.805 Y174.857 E0.05349
G1 X183.805 Y174.321 E0.01687
G1 X182.604 Y175.522 E0.05349
G1 X182.604 Y174.986 E0.01687
G1 X183.805 Y173.786 E0.05349
G1 X183.805 Y173.250 E0.01687
G1 X182.604 Y174.451 E0.05349
G1 X182.604 Y173.915 E0.01687
G1 X183.805 Y172.714 E0.05349
G1 X183.805 Y172.179 E0.01687
G1 X182.968 Y173.016 E0.03729
G1 X183.283 Y172.308 E0.02439
G1 X183.140 Y172.308 E0.00449
G1 X183.805 Y171.643 E0.02963
G1 X183.805 Y171.107 E0.01687
G1 X182.605 Y172.308 E0.05348
G1 X182.604 Y171.773 E0.01687
G1 X183.270 Y171.107 E0.02963
G1 X182.734 Y171.107 E0.01687
G1 X181.897 Y171.944 E0.03728
G1 X181.079 Y172.308 E0.02821
G1 X180.998 Y172.308 E0.00255
G1 X182.198 Y171.107 E0.05349
G1 X181.663 Y171.107 E0.01687
G1 X180.462 Y172.308 E0.05349
G1 X179.926 Y172.308 E0.01687
G1 X181.127 Y171.107 E0.05349
G1 X180.592 Y171.107 E0.01687
G1 X179.391 Y172.308 E0.05349
G1 X178.855 Y172.308 E0.01687
G1 X180.056 Y171.107 E0.05349
G1 X179.520 Y171.107 E0.01687
G1 X178.319 Y172.308 E0.05349
G1 X177.784 Y172.308 E0.01687
G1 X178.985 Y171.107 E0.05349
G1 X178.449 Y171.107 E0.01687
G1 X177.248 Y172.308 E0.05349
G1 X176.713 Y172.308 E0.01687
G1 X177.913 Y171.107 E0.05349
G1 X177.378 Y171.107 E0.01687
G1 X176.177 Y172.308 E0.05349
G1 X175.641 Y172.308 E0.01687
G1 X176.842 Y171.107 E0.05349
G1 X176.307 Y171.107 E0.01687
G1 X175.106 Y172.308 E0.05349
G1 X174.570 Y172.308 E0.01687
G1 X175.771 Y171.107 E0.05349
G1 X175.235 Y171.107 E0.01687
G1 X174.034 Y172.308 E0.05349
G1 X173.499 Y172.308 E0.01687
G1 X174.700 Y171.107 E0.05349
G1 X174.164 Y171.107 E0.01687
G1 X172.963 Y172.308 E0.05349
G1 X172.427 Y172.308 E0.01687
G1 X173.628 Y171.107 E0.05349
G1 X173.093 Y171.107 E0.01687
G1 X171.892 Y172.308 E0.05349
G1 X171.356 Y172.308 E0.01687
G1 X172.557 Y171.107 E0.05349
G1 X172.021 Y171.107 E0.01687
G1 X170.821 Y172.308 E0.05349
G1 X170.285 Y172.308 E0.01687
G1 X171.486 Y171.107 E0.05349
G1 X170.950 Y171.107 E0.01687
G1 X169.749 Y172.308 E0.05349
G1 X169.214 Y172.308 E0.01687
G1 X170.415 Y171.107 E0.05349
G1 X169.879 Y171.107 E0.01687
G1 X168.678 Y172.308 E0.05349
G1 X168.142 Y172.308 E0.01687
G1 X169.343 Y171.107 E0.05349
G1 X168.808 Y171.107 E0.01687
G1 X167.607 Y172.308 E0.05349
G1 X167.071 Y172.308 E0.01687
G1 X168.272 Y171.107 E0.05349
G1 X167.736 Y171.107 E0.01687
G1 X166.535 Y172.308 E0.05349
G1 X166.000 Y172.308 E0.01687
G1 X167.201 Y171.107 E0.05349
G1 X166.665 Y171.107 E0.01687
G1 X165.464 Y172.308 E0.05349
G1 X164.929 Y172.308 E0.01687
G1 X166.129 Y171.107 E0.05349
G1 X165.594 Y171.107 E0.01687
G1 X164.393 Y172.308 E0.05349
G1 X163.857 Y172.308 E0.01687
G1 X165.058 Y171.107 E0.05349
G1 X164.523 Y171.107 E0.01687
G1 X163.322 Y172.308 E0.05349
G1 X162.786 Y172.308 E0.01687
G1 X163.987 Y171.107 E0.05349
G1 X163.451 Y171.107 E0.01687
G1 X162.250 Y172.308 E0.05349
G1 X161.715 Y172.308 E0.01687
G1 X162.916 Y171.107 E0.05349
G1 X162.380 Y171.107 E0.01687
G1 X161.179 Y172.308 E0.05349
G1 X160.643 Y172.308 E0.01687
G1 X161.844 Y171.107 E0.05349
G1 X161.309 Y171.107 E0.01687
G1 X160.108 Y172.308 E0.05349
G1 X159.572 Y172.308 E0.01687
G1 X160.773 Y171.107 E0.05349
G1 X160.237 Y171.107 E0.01687
G1 X159.037 Y172.308 E0.05349
G1 X158.948 Y172.308 E0.00279
G1 X158.638 Y172.171 E0.01066
G1 X159.702 Y171.107 E0.04736
G1 X159.166 Y171.107 E0.01687
G1 X158.268 Y172.006 E0.04002
G1 X157.897 Y171.841 E0.01278
G1 X158.631 Y171.107 E0.03268
G1 X158.095 Y171.107 E0.01687
G1 X157.526 Y171.676 E0.02534
G1 X157.422 Y171.630 E0.00358
G1 X157.422 Y171.780 E0.00473
G1 X156.894 Y172.308 E0.02352
G1 X156.744 Y172.308 E0.00473
G1 X156.790 Y172.412 E0.00358
G1 X156.354 Y172.848 E0.01940
G1 X156.354 Y172.312 E0.01687
G1 X157.559 Y171.107 E0.05366
G1 X157.024 Y171.107 E0.01687
G1 X156.354 Y171.776 E0.02980
G1 X156.354 Y171.241 E0.01687
G1 X156.488 Y171.107 E0.00595
G1 X156.354 Y172.848 F7200.000
G1 F1680
G1 X156.354 Y173.383 E0.01687
G1 X157.088 Y172.650 E0.03268
G1 X157.253 Y173.020 E0.01278
G1 X156.354 Y173.919 E0.04002
G1 X156.354 Y174.455 E0.01687
G1 X157.418 Y173.391 E0.04736
G1 X157.555 Y173.701 E0.01066
G1 X157.555 Y173.789 E0.00279
G1 X156.354 Y174.990 E0.05349
G1 X156.354 Y175.526 E0.01687
G1 X157.555 Y174.325 E0.05349
G1 X157.555 Y174.861 E0.01687
G1 X156.354 Y176.062 E0.05349
G1 X156.354 Y176.597 E0.01687
G1 X157.555 Y175.396 E0.05349
G1 X157.555 Y175.932 E0.01687
G1 X156.354 Y177.133 E0.05349
G1 X156.354 Y177.668 E0.01687
G1 X157.555 Y176.468 E0.05349
G1 X157.555 Y177.003 E0.01687
G1 X156.354 Y178.204 E0.05349
G1 X156.354 Y178.740 E0.01687
G1 X157.555 Y177.539 E0.05349
G1 X157.555 Y178.074 E0.01687
G1 X156.354 Y179.275 E0.05349
G1 X156.354 Y179.811 E0.01687
G1 X157.555 Y178.610 E0.05349
G1 X157.555 Y179.146 E0.01687
G1 X156.354 Y180.347 E0.05349
G1 X156.354 Y180.882 E0.01687
G1 X157.555 Y179.681 E0.05349
G1 X157.555 Y180.217 E0.01687
G1 X156.354 Y181.418 E0.05349
G1 X156.354 Y181.954 E0.01687
G1 X157.555 Y180.753 E0.05349
G1 X157.555 Y181.288 E0.01687
G1 X156.354 Y182.489 E0.05349
G1 X156.354 Y183.025 E0.01687
G1 X157.555 Y181.824 E0.05349
G1 X157.555 Y182.360 E0.01687
G1 X156.354 Y183.560 E0.05349
G1 X156.354 Y184.096 E0.01687
G1 X157.555 Y182.895 E0.05349
G1 X157.555 Y183.431 E0.01687
G1 X156.354 Y184.632 E0.05349
G1 X156.354 Y185.167 E0.01687
G1 X157.555 Y183.966 E0.05349
G1 X157.555 Y184.502 E0.01687
G1 X156.354 Y185.703 E0.05349
G1 X156.354 Y186.239 E0.01687
G1 X157.555 Y185.038 E0.05349
G1 X157.555 Y185.573 E0.01687
G1 X156.354 Y186.774 E0.05349
G1 X156.354 Y187.310 E0.01687
G1 X157.555 Y186.109 E0.05349
G1 X157.555 Y186.645 E0.01687
G1 X156.354 Y187.846 E0.05349
G1 X156.354 Y188.381 E0.01687
G1 X157.555 Y187.180 E0.05349
G1 X157.555 Y187.716 E0.01687
G1 X156.354 Y188.917 E0.05349
G1 X156.354 Y189.452 E0.01687
G1 X157.555 Y188.252 E0.05349
G1 X157.555 Y188.787 E0.01687
G1 X156.354 Y189.988 E0.05349
G1 X156.354 Y190.524 E0.01687
G1 X157.555 Y189.323 E0.05349
G1 X157.555 Y189.858 E0.01687
G1 X156.354 Y191.059 E0.05349
G1 X156.354 Y191.595 E0.01687
G1 X157.555 Y190.394 E0.05349
G1 X157.555 Y190.930 E0.01687
G1 X156.354 Y192.131 E0.05349
G1 X156.354 Y192.666 E0.01687
G1 X157.555 Y191.465 E0.05349
G1 X157.555 Y192.001 E0.01687
G1 X156.354 Y193.202 E0.05349
G1 X156.354 Y193.738 E0.01687
G1 X157.555 Y192.537 E0.05349
G1 X157.555 Y193.072 E0.01687
G1 X156.354 Y194.273 E0.05349
G1 X156.354 Y194.809 E0.01687
G1 X157.555 Y193.608 E0.05349
G1 X157.555 Y194.144 E0.01687
G1 X156.354 Y195.344 E0.05349
G1 X156.354 Y195.880 E0.01687
G1 X157.555 Y194.679 E0.05349
G1 X157.555 Y195.215 E0.01687
G1 X156.354 Y196.416 E0.05349
G1 X156.354 Y196.951 E0.01687
G1 X157.555 Y195.750 E0.05349
G1 X157.555 Y195.831 E0.00255
G1 X157.192 Y196.650 E0.02820
G1 X156.354 Y197.487 E0.03729
G1 X156.354 Y198.023 E0.01687
G1 X157.020 Y197.357 E0.02963
G1 X157.555 Y197.357 E0.01687
G1 X156.354 Y198.558 E0.05348
G1 X156.890 Y198.558 E0.01687
G1 X157.555 Y197.893 E0.02963
G1 X157.555 Y198.035 E0.00449
G1 X158.263 Y197.721 E0.02439
G1 X157.426 Y198.558 E0.03729
G1 X157.961 Y198.558 E0.01687
G1 X159.162 Y197.357 E0.05349
G1 X159.698 Y197.357 E0.01687
G1 X158.497 Y198.558 E0.05349
G1 X159.033 Y198.558 E0.01687
G1 X160.234 Y197.357 E0.05349
G1 X160.769 Y197.357 E0.01687
G1 X159.568 Y198.558 E0.05349
G1 X160.104 Y198.558 E0.01687
G1 X161.305 Y197.357 E0.05349
G1 X161.840 Y197.357 E0.01687
G1 X160.640 Y198.558 E0.05349
G1 X161.175 Y198.558 E0.01687
G1 X162.376 Y197.357 E0.05349
G1 X162.912 Y197.357 E0.01687
G1 X161.711 Y198.558 E0.05349
G1 X162.246 Y198.558 E0.01687
G1 X163.447 Y197.357 E0.05349
G1 X163.983 Y197.357 E0.01687
G1 X162.782 Y198.558 E0.05349
G1 X163.318 Y198.558 E0.01687
G1 X164.519 Y197.357 E0.05349
G1 X165.054 Y197.357 E0.01687
G1 X163.853 Y198.558 E0.05349
G1 X164.389 Y198.558 E0.01687
G1 X165.590 Y197.357 E0.05349
G1 X166.126 Y197.357 E0.01687
G1 X164.925 Y198.558 E0.05349
G1 X165.460 Y198.558 E0.01687
G1 X166.661 Y197.357 E0.05349
G1 X167.197 Y197.357 E0.01687
G1 X165.996 Y198.558 E0.05349
G1 X166.532 Y198.558 E0.01687
G1 X167.732 Y197.357 E0.05349
G1 X168.268 Y197.357 E0.01687
G1 X167.067 Y198.558 E0.05349
G1 X167.603 Y198.558 E0.01687
G1 X168.804 Y197.357 E0.05349
G1 X169.339 Y197.357 E0.01687
G1 X168.138 Y198.558 E0.05349
G1 X168.674 Y198.558 E0.01687
G1 X169.875 Y197.357 E0.05349
G1 X170.411 Y197.357 E0.01687
G1 X169.210 Y198.558 E0.05349
G1 X169.745 Y198.558 E0.01687
G1 X170.946 Y197.357 E0.05349
G1 X171.482 Y197.357 E0.01687
G1 X170.281 Y198.558 E0.05349
G1 X170.817 Y198.558 E0.01687
G1 X172.018 Y197.357 E0.05349
G1 X172.553 Y197.357 E0.01687
G1 X171.352 Y198.558 E0.05349
G1 X171.888 Y198.558 E0.01687
G1 X173.089 Y197.357 E0.05349
G1 X173.624 Y197.357 E0.01687
