; generated by Slic3r 1.3.1-dev on 2018-09-03 at 11:42:29

; Filament notes: 
; Test mit verschiedenen Temperaturen:
; 
; erste Lage wird problemlos gedruckt. Danach kommt der Extruder ins stocken
; --> es gibt einen Pfropfen, der die Düse verstopft.
; 
; Test mit 180°C
; 
; ==>wenn zu nahe am Bett prozessiert wird kann die Düse verstopfen.
; 
; external perimeters extrusion width = 0.45mm (1.22mm^3/s)
; perimeters extrusion width = 0.45mm (2.44mm^3/s)
; infill extrusion width = 0.45mm (3.26mm^3/s)
; solid infill extrusion width = 0.45mm (2.61mm^3/s)
; top infill extrusion width = 0.45mm (2.08mm^3/s)

M107
;M115 U3.0.10 ; tell printer latest fw version
M83  ; extruder relative mode
M104 S215 ; set extruder temp
M140 S55 ; set bed temp
M190 S55 ; wait for bed temp
M109 S215 ; wait for extruder temp
G28 W ; home all without mesh bed level
;G80 ; mesh bed leveling
;G1 Y-3.0 F1000.0 ; go outside pritn area
;G1 X60.0 E9.0  F1000.0 ; intro line
;G1 X100.0 E12.5  F1000.0 ; intro line
; Filament gcode

G21 ; set units to millimeters
G90 ; use absolute coordinates
M83 ; use relative distances for extrusion
G1 E-2.00000 F2100.00000
G1 Z0.200 F6000.000
G1 X122.793 Y164.379 F6000.000
G1 E2.00000 F2100.00000
M204 S1000
G1 F2100
G1 X124.417 Y163.522 E0.05756
G1 X125.548 Y163.369 E0.03579
G1 X130.548 Y163.369 E0.15677
G1 X132.341 Y163.765 E0.05756
G1 X133.562 Y164.618 E0.04671
G1 X153.562 Y184.618 E0.88683
G1 X154.550 Y186.165 E0.05756
G1 X154.811 Y187.632 E0.04671
G1 X154.811 Y192.632 E0.15677
G1 X154.415 Y194.424 E0.05756
G1 X153.303 Y195.885 E0.05756
G1 X151.679 Y196.741 E0.05756
G1 X150.548 Y196.894 E0.03579
G1 X125.548 Y196.894 E0.78386
G1 X123.755 Y196.499 E0.05756
G1 X122.295 Y195.386 E0.05756
G1 X121.438 Y193.763 E0.05756
G1 X121.286 Y192.632 E0.03579
G1 X121.286 Y167.632 E0.78386
G1 X121.681 Y165.839 E0.05756
G1 X122.757 Y164.427 E0.05568
G1 X123.162 Y164.565 F6000.000
G1 F2100
G1 X125.548 Y163.746 E0.07910
G1 X130.548 Y163.746 E0.15677
G1 X132.255 Y164.141 E0.05492
G1 X133.295 Y164.884 E0.04010
G1 X153.295 Y184.884 E0.88683
G1 X154.223 Y186.370 E0.05492
G1 X154.433 Y187.632 E0.04010
G1 X154.433 Y192.632 E0.15677
G1 X154.039 Y194.338 E0.05492
G1 X152.934 Y195.698 E0.05492
G1 X150.548 Y196.517 E0.07910
G1 X125.548 Y196.517 E0.78386
G1 X123.841 Y196.122 E0.05492
G1 X122.482 Y195.018 E0.05492
G1 X121.663 Y192.632 E0.07910
G1 X121.663 Y167.632 E0.78386
G1 X122.057 Y165.925 E0.05492
G1 X123.124 Y164.612 E0.05304
G1 X123.528 Y164.763 F6000.000
G1 F2100
G1 X125.548 Y164.123 E0.06643
G1 X130.548 Y164.123 E0.15677
G1 X132.164 Y164.518 E0.05215
G1 X133.029 Y165.151 E0.03361
G1 X153.029 Y185.151 E0.88683
G1 X153.893 Y186.572 E0.05215
G1 X154.056 Y187.632 E0.03361
G1 X154.056 Y192.632 E0.15677
G1 X153.662 Y194.248 E0.05215
G1 X152.568 Y195.500 E0.05215
G1 X150.548 Y196.140 E0.06643
G1 X125.548 Y196.140 E0.78386
G1 X123.932 Y195.746 E0.05215
G1 X122.679 Y194.651 E0.05215
G1 X122.040 Y192.632 E0.06643
G1 X122.040 Y167.632 E0.78386
G1 X122.434 Y166.016 E0.05215
G1 X123.489 Y164.808 E0.05027
G1 X123.892 Y164.974 F6000.000
G1 F2100
G1 X125.548 Y164.500 E0.05400
G1 X130.548 Y164.500 E0.15677
G1 X132.068 Y164.894 E0.04923
G1 X132.762 Y165.418 E0.02726
G1 X152.762 Y185.418 E0.88683
G1 X153.559 Y186.771 E0.04923
G1 X153.679 Y187.632 E0.02726
G1 X153.679 Y192.632 E0.15677
G1 X153.286 Y194.152 E0.04923
G1 X152.204 Y195.289 E0.04923
G1 X150.548 Y195.763 E0.05400
G1 X125.548 Y195.763 E0.78386
G1 X124.028 Y195.369 E0.04923
G1 X122.890 Y194.287 E0.04923
G1 X122.417 Y192.632 E0.05400
G1 X122.417 Y167.632 E0.78386
G1 X122.810 Y166.112 E0.04923
G1 X123.851 Y165.018 E0.04735
G1 X124.253 Y165.201 F6000.000
G1 F2100
G1 X125.548 Y164.878 E0.04186
G1 X130.548 Y164.878 E0.15677
G1 X132.496 Y165.684 E0.06609
G1 X152.496 Y185.684 E0.88683
G1 X153.302 Y187.632 E0.06609
G1 X153.302 Y192.632 E0.15677
G1 X152.909 Y194.049 E0.04612
G1 X151.843 Y195.062 E0.04612
G1 X150.548 Y195.386 E0.04186
G1 X125.548 Y195.386 E0.78386
G1 X124.131 Y194.993 E0.04612
G1 X123.117 Y193.927 E0.04612
G1 X122.794 Y192.632 E0.04186
G1 X122.794 Y167.632 E0.78386
G1 X123.187 Y166.214 E0.04612
G1 X124.209 Y165.242 E0.04424
G1 X124.608 Y165.448 F6000.000
G1 F2100
G1 X125.548 Y165.255 E0.03008
G1 X130.548 Y165.255 E0.15677
G1 X132.229 Y165.951 E0.05704
G1 X152.229 Y185.951 E0.88683
G1 X152.925 Y187.632 E0.05704
G1 X152.925 Y192.632 E0.15677
G1 X152.534 Y193.939 E0.04278
G1 X151.488 Y194.815 E0.04278
G1 X150.548 Y195.009 E0.03008
G1 X125.548 Y195.009 E0.78386
G1 X124.241 Y194.617 E0.04278
G1 X123.365 Y193.571 E0.04278
G1 X123.171 Y192.632 E0.03008
G1 X123.171 Y167.632 E0.78386
G1 X123.563 Y166.325 E0.04278
G1 X124.562 Y165.487 E0.04090
G1 E-2.00000 F2100.00000
G1 X144.584 Y188.596 F6000.000
G1 E2.00000 F2100.00000
G1 F1260
G1 X149.584 Y188.596 E0.15677
G1 X149.584 Y191.668 E0.09631
G1 X141.512 Y191.668 E0.25308
G1 X141.512 Y186.668 E0.15677
G1 X129.584 Y186.668 E0.37400
G1 X129.584 Y191.668 E0.15677
G1 X126.512 Y191.668 E0.09631
G1 X126.512 Y168.596 E0.72340
G1 X129.584 Y168.596 E0.09631
G1 X129.584 Y173.596 E0.15677
G1 X134.584 Y173.596 E0.15677
G1 X134.584 Y178.596 E0.15677
G1 X139.584 Y178.596 E0.15677
G1 X139.584 Y183.596 E0.15677
G1 X144.584 Y183.596 E0.15677
G1 X144.584 Y188.536 E0.15489
G1 X144.961 Y188.219 F6000.000
G1 F1260
G1 X149.961 Y188.219 E0.15677
G1 X149.961 Y192.045 E0.11996
G1 X141.135 Y192.045 E0.27673
G1 X141.135 Y187.045 E0.15677
G1 X129.961 Y187.045 E0.35036
G1 X129.961 Y192.045 E0.15677
G1 X126.135 Y192.045 E0.11996
G1 X126.135 Y168.219 E0.74704
G1 X129.961 Y168.219 E0.11996
G1 X129.961 Y173.219 E0.15677
G1 X134.961 Y173.219 E0.15677
G1 X134.961 Y178.219 E0.15677
G1 X139.961 Y178.219 E0.15677
G1 X139.961 Y183.219 E0.15677
G1 X144.961 Y183.219 E0.15677
G1 X144.961 Y188.159 E0.15489
G1 X145.338 Y187.842 F6000.000
G1 F630
G1 X150.338 Y187.842 E0.15677
G1 X150.338 Y192.422 E0.14360
G1 X140.758 Y192.422 E0.30037
G1 X140.758 Y187.422 E0.15677
G1 X130.338 Y187.422 E0.32671
G1 X130.338 Y192.422 E0.15677
G1 X125.758 Y192.422 E0.14360
G1 X125.758 Y167.842 E0.77069
G1 X130.338 Y167.842 E0.14360
G1 X130.338 Y172.842 E0.15677
G1 X135.338 Y172.842 E0.15677
G1 X135.338 Y177.842 E0.15677
G1 X140.338 Y177.842 E0.15677
G1 X140.338 Y182.842 E0.15677
G1 X145.338 Y182.842 E0.15677
G1 X145.338 Y187.782 E0.15489
G1 X145.442 Y188.228 F6000.000
G1 E-2.00000 F2100.00000
G1 X149.140 Y191.357 F6000.000
G1 E2.00000 F2100.00000
G1 F1344
G1 X149.273 Y191.224 E0.00597
G1 X149.273 Y190.686 E0.01700
G1 X148.602 Y191.357 E0.03001
G1 X148.064 Y191.357 E0.01700
G1 X149.273 Y190.148 E0.05406
G1 X149.273 Y189.610 E0.01700
G1 X147.527 Y191.357 E0.07811
G1 X146.989 Y191.357 E0.01700
G1 X149.273 Y189.073 E0.10215
G1 X149.273 Y188.906 E0.00526
G1 X148.902 Y188.906 E0.01174
G1 X146.451 Y191.357 E0.10959
G1 X145.913 Y191.357 E0.01700
G1 X148.364 Y188.906 E0.10959
G1 X147.827 Y188.906 E0.01700
G1 X145.376 Y191.357 E0.10959
G1 X144.838 Y191.357 E0.01700
G1 X147.289 Y188.906 E0.10959
G1 X146.751 Y188.906 E0.01700
G1 X144.300 Y191.357 E0.10959
G1 X143.762 Y191.357 E0.01700
G1 X146.213 Y188.906 E0.10959
G1 X145.675 Y188.906 E0.01700
G1 X143.225 Y191.357 E0.10959
G1 X142.687 Y191.357 E0.01700
G1 X145.138 Y188.906 E0.10959
G1 X144.600 Y188.906 E0.01700
G1 X142.149 Y191.357 E0.10959
G1 X141.823 Y191.357 E0.01032
G1 X141.823 Y191.146 E0.00668
G1 X144.273 Y188.695 E0.10959
G1 X144.273 Y188.157 E0.01700
G1 X141.823 Y190.608 E0.10959
G1 X141.823 Y190.070 E0.01700
G1 X144.273 Y187.619 E0.10959
G1 X144.273 Y187.082 E0.01700
G1 X141.823 Y189.532 E0.10959
G1 X141.823 Y188.995 E0.01700
G1 X144.273 Y186.544 E0.10959
G1 X144.273 Y186.006 E0.01700
G1 X141.823 Y188.457 E0.10959
G1 X141.823 Y187.919 E0.01700
G1 X144.273 Y185.468 E0.10959
G1 X144.273 Y184.931 E0.01700
G1 X141.823 Y187.381 E0.10959
G1 X141.823 Y186.844 E0.01700
G1 X144.273 Y184.393 E0.10959
G1 X144.273 Y183.906 E0.01538
G1 X144.222 Y183.906 E0.00162
G1 X141.771 Y186.357 E0.10959
G1 X141.234 Y186.357 E0.01700
G1 X143.684 Y183.906 E0.10959
G1 X143.147 Y183.906 E0.01700
G1 X140.696 Y186.357 E0.10959
G1 X140.158 Y186.357 E0.01700
G1 X142.609 Y183.906 E0.10959
G1 X142.071 Y183.906 E0.01700
G1 X139.620 Y186.357 E0.10959
G1 X139.082 Y186.357 E0.01700
G1 X141.533 Y183.906 E0.10959
G1 X140.996 Y183.906 E0.01700
G1 X138.545 Y186.357 E0.10959
G1 X138.007 Y186.357 E0.01700
G1 X140.458 Y183.906 E0.10959
G1 X139.920 Y183.906 E0.01700
G1 X137.469 Y186.357 E0.10959
G1 X136.931 Y186.357 E0.01700
G1 X139.382 Y183.906 E0.10959
G1 X139.273 Y183.906 E0.00344
G1 X139.273 Y183.477 E0.01356
G1 X136.394 Y186.357 E0.12877
G1 X135.856 Y186.357 E0.01700
G1 X139.273 Y182.940 E0.15282
G1 X139.273 Y182.402 E0.01700
G1 X135.318 Y186.357 E0.17687
G1 X134.780 Y186.357 E0.01700
G1 X139.273 Y181.864 E0.20091
G1 X139.273 Y181.326 E0.01700
G1 X134.243 Y186.357 E0.22496
G1 X133.705 Y186.357 E0.01700
G1 X139.273 Y180.788 E0.24901
G1 X139.273 Y180.251 E0.01700
G1 X133.167 Y186.357 E0.27305
G1 X132.629 Y186.357 E0.01700
G1 X139.273 Y179.713 E0.29710
G1 X139.273 Y179.175 E0.01700
G1 X132.091 Y186.357 E0.32115
G1 X131.554 Y186.357 E0.01700
G1 X139.005 Y178.906 E0.33317
G1 X138.467 Y178.906 E0.01700
G1 X131.016 Y186.357 E0.33317
G1 X130.478 Y186.357 E0.01700
G1 X137.929 Y178.906 E0.33317
G1 X137.391 Y178.906 E0.01700
G1 X129.940 Y186.357 E0.33317
G1 X129.403 Y186.357 E0.01700
G1 X136.854 Y178.906 E0.33317
G1 X136.316 Y178.906 E0.01700
G1 X126.823 Y188.399 E0.42449
G1 X126.823 Y187.862 E0.01700
G1 X135.778 Y178.906 E0.40045
G1 X135.240 Y178.906 E0.01700
G1 X126.823 Y187.324 E0.37640
G1 X126.823 Y186.786 E0.01700
G1 X134.702 Y178.906 E0.35235
G1 X134.273 Y178.906 E0.01356
G1 X134.273 Y178.797 E0.00344
G1 X126.823 Y186.248 E0.33317
G1 X126.823 Y185.711 E0.01700
G1 X134.273 Y178.260 E0.33317
G1 X134.273 Y177.722 E0.01700
G1 X126.823 Y185.173 E0.33317
G1 X126.823 Y184.635 E0.01700
G1 X134.273 Y177.184 E0.33317
G1 X134.273 Y176.646 E0.01700
G1 X126.823 Y184.097 E0.33317
G1 X126.823 Y183.560 E0.01700
G1 X134.273 Y176.109 E0.33317
G1 X134.273 Y175.571 E0.01700
G1 X126.823 Y183.022 E0.33317
G1 X126.823 Y182.484 E0.01700
G1 X134.273 Y175.033 E0.33317
G1 X134.273 Y174.495 E0.01700
G1 X126.823 Y181.946 E0.33317
G1 X126.823 Y181.408 E0.01700
G1 X134.273 Y173.958 E0.33317
G1 X134.273 Y173.906 E0.00162
G1 X133.787 Y173.906 E0.01538
G1 X126.823 Y180.871 E0.31142
G1 X126.823 Y180.333 E0.01700
G1 X133.249 Y173.906 E0.28737
G1 X132.711 Y173.906 E0.01700
G1 X126.823 Y179.795 E0.26332
G1 X126.823 Y179.257 E0.01700
G1 X132.174 Y173.906 E0.23928
G1 X131.636 Y173.906 E0.01700
G1 X126.823 Y178.720 E0.21523
G1 X126.823 Y178.182 E0.01700
G1 X131.098 Y173.906 E0.19118
G1 X130.560 Y173.906 E0.01700
G1 X126.823 Y177.644 E0.16714
G1 X126.823 Y177.106 E0.01700
G1 X130.023 Y173.906 E0.14309
G1 X129.485 Y173.906 E0.01700
G1 X126.823 Y176.569 E0.11904
G1 X126.823 Y176.031 E0.01700
G1 X129.273 Y173.580 E0.10959
G1 X129.273 Y173.042 E0.01700
G1 X126.823 Y175.493 E0.10959
G1 X126.823 Y174.955 E0.01700
G1 X129.273 Y172.504 E0.10959
G1 X129.273 Y171.967 E0.01700
G1 X126.823 Y174.417 E0.10959
G1 X126.823 Y173.880 E0.01700
G1 X129.273 Y171.429 E0.10959
G1 X129.273 Y170.891 E0.01700
G1 X126.823 Y173.342 E0.10959
G1 X126.823 Y172.804 E0.01700
G1 X129.273 Y170.353 E0.10959
G1 X129.273 Y169.815 E0.01700
G1 X126.823 Y172.266 E0.10959
G1 X126.823 Y171.729 E0.01700
G1 X129.273 Y169.278 E0.10959
G1 X129.273 Y168.906 E0.01174
G1 X129.107 Y168.906 E0.00526
G1 X126.823 Y171.191 E0.10216
G1 X126.823 Y170.653 E0.01700
G1 X128.569 Y168.906 E0.07811
G1 X128.032 Y168.906 E0.01700
G1 X126.823 Y170.115 E0.05406
G1 X126.823 Y169.578 E0.01700
G1 X127.494 Y168.906 E0.03002
G1 X126.956 Y168.906 E0.01700
G1 X126.823 Y169.040 E0.00596
G1 E-2.00000 F2100.00000
G1 X129.273 Y186.486 F6000.000
G1 E2.00000 F2100.00000
G1 F1344
G1 X126.823 Y188.937 E0.10959
G1 X126.823 Y189.475 E0.01700
G1 X129.273 Y187.024 E0.10959
G1 X129.273 Y187.562 E0.01700
G1 X126.823 Y190.013 E0.10959
G1 X126.823 Y190.551 E0.01700
G1 X129.273 Y188.100 E0.10959
G1 X129.273 Y188.637 E0.01700
G1 X126.823 Y191.088 E0.10959
G1 X126.823 Y191.357 E0.00850
G1 X127.091 Y191.357 E0.00850
G1 X129.273 Y189.175 E0.09757
G1 X129.273 Y189.713 E0.01700
G1 X127.629 Y191.357 E0.07352
G1 X128.167 Y191.357 E0.01700
G1 X129.273 Y190.251 E0.04948
G1 X129.273 Y190.788 E0.01700
G1 X128.705 Y191.357 E0.02543
M104 S210 ; set temperature
M140 S45 ; set bed temperature
G1 E-2.00000 F2100.00000
G1 Z0.400 F6000.000
G1 X144.509 Y188.671 F6000.000
G1 E2.00000 F2100.00000
M204 S800
G1 F1800
G1 X149.509 Y188.671 E0.16924
G1 X149.509 Y191.593 E0.09890
G1 X141.587 Y191.593 E0.26814
G1 X141.587 Y186.593 E0.16924
G1 X129.509 Y186.593 E0.40884
G1 X129.509 Y191.593 E0.16924
G1 X126.587 Y191.593 E0.09890
G1 X126.587 Y168.671 E0.77587
G1 X129.509 Y168.671 E0.09890
G1 X129.509 Y173.671 E0.16924
G1 X134.509 Y173.671 E0.16924
G1 X134.509 Y178.671 E0.16924
G1 X139.509 Y178.671 E0.16924
G1 X139.509 Y183.671 E0.16924
G1 X144.509 Y183.671 E0.16924
G1 X144.509 Y188.611 E0.16721
M204 S1000
G1 X144.916 Y188.264 F6000.000
M204 S800
G1 F1800
G1 X149.916 Y188.264 E0.16924
G1 X149.916 Y192.000 E0.12645
G1 X141.180 Y192.000 E0.29570
G1 X141.180 Y187.000 E0.16924
G1 X129.916 Y187.000 E0.38128
G1 X129.916 Y192.000 E0.16924
G1 X126.180 Y192.000 E0.12645
G1 X126.180 Y168.264 E0.80343
G1 X129.916 Y168.264 E0.12645
G1 X129.916 Y173.264 E0.16924
G1 X134.916 Y173.264 E0.16924
G1 X134.916 Y178.264 E0.16924
G1 X139.916 Y178.264 E0.16924
G1 X139.916 Y183.264 E0.16924
G1 X144.916 Y183.264 E0.16924
G1 X144.916 Y188.204 E0.16721
M204 S1000
G1 X145.323 Y187.857 F6000.000
M204 S800
G1 F900
G1 X150.323 Y187.857 E0.16924
G1 X150.323 Y192.407 E0.15401
G1 X140.773 Y192.407 E0.32326
G1 X140.773 Y187.407 E0.16924
G1 X130.323 Y187.407 E0.35372
G1 X130.323 Y192.407 E0.16924
G1 X125.773 Y192.407 E0.15401
G1 X125.773 Y167.857 E0.83099
G1 X130.323 Y167.857 E0.15401
G1 X130.323 Y172.857 E0.16924
G1 X135.323 Y172.857 E0.16924
G1 X135.323 Y177.857 E0.16924
G1 X140.323 Y177.857 E0.16924
G1 X140.323 Y182.857 E0.16924
G1 X145.323 Y182.857 E0.16924
G1 X145.323 Y187.797 E0.16721
M204 S1000
G1 X145.427 Y188.243 F6000.000
G1 X144.417 Y189.006 F6000.000
M204 S2000
G1 F1920
G1 X146.669 Y191.257 E0.10794
G1 X147.245 Y191.257 E0.01954
G1 X144.994 Y189.006 E0.10794
G1 X145.570 Y189.006 E0.01954
G1 X147.822 Y191.257 E0.10794
G1 X148.398 Y191.257 E0.01954
G1 X146.147 Y189.006 E0.10794
G1 X146.724 Y189.006 E0.01954
G1 X148.975 Y191.257 E0.10794
G1 X149.174 Y191.257 E0.00674
G1 X149.174 Y190.880 E0.01281
G1 X147.300 Y189.006 E0.08982
G1 X147.877 Y189.006 E0.01954
G1 X149.174 Y190.303 E0.06219
G1 X149.174 Y189.727 E0.01954
G1 X148.453 Y189.006 E0.03455
G1 X149.030 Y189.006 E0.01954
G1 X149.174 Y189.150 E0.00691
M204 S1000
G1 E-2.00000 F2100.00000
G1 X149.548 Y188.632 F6000.000
G1 X148.048 Y190.132 F6000.000
G1 X144.548 Y190.132 F6000.000
G1 X143.305 Y189.874 F6000.000
G1 X143.048 Y188.632 F6000.000
G1 X143.048 Y186.632 F6000.000
G1 X142.791 Y185.389 F6000.000
G1 X144.548 Y183.632 F6000.000
G1 X144.174 Y184.150 F6000.000
G1 E2.00000 F2100.00000
M204 S2000
G1 F1920
G1 X144.030 Y184.006 E0.00691
G1 X143.453 Y184.006 E0.01954
G1 X144.174 Y184.727 E0.03455
G1 X144.174 Y185.303 E0.01954
G1 X142.877 Y184.006 E0.06219
G1 X142.300 Y184.006 E0.01954
G1 X144.174 Y185.880 E0.08982
G1 X144.174 Y186.456 E0.01954
G1 X141.724 Y184.006 E0.11746
G1 X141.147 Y184.006 E0.01954
G1 X144.174 Y187.033 E0.14510
G1 X144.174 Y187.609 E0.01954
G1 X140.570 Y184.006 E0.17274
G1 X139.994 Y184.006 E0.01954
G1 X144.174 Y188.186 E0.20038
G1 X144.174 Y188.762 E0.01954
G1 X141.922 Y186.511 E0.10794
