; generated by Slic3r 1.3.1-dev on 2018-10-15 at 09:39:48

; Filament notes: 
; Test mit verschiedenen Temperaturen:
; 
; erste Lage wird problemlos gedruckt. Danach kommt der Extruder ins stocken
; --> es gibt einen Pfropfen, der die Düse verstopft.
; 
; Test mit 180°C
; 
; ==>wenn zu nahe am Bett prozessiert wird kann die Düse verstopfen.
; 
; external perimeters extrusion width = 0.45mm (2.44mm^3/s)
; perimeters extrusion width = 0.45mm (3.26mm^3/s)
; infill extrusion width = 0.45mm (4.88mm^3/s)
; solid infill extrusion width = 0.45mm (3.26mm^3/s)
; top infill extrusion width = 0.40mm (2.14mm^3/s)

; external perimeters extrusion width = 0.45mm (2.44mm^3/s)
; perimeters extrusion width = 0.45mm (3.26mm^3/s)
; infill extrusion width = 0.45mm (4.88mm^3/s)
; solid infill extrusion width = 0.45mm (3.26mm^3/s)
; top infill extrusion width = 0.40mm (2.14mm^3/s)

;M115 U3.0.10 ; tell printer latest fw version
M83  ; extruder relative mode
M104 S210 ; set extruder temp
M140 S60 ; set bed temp
M190 S60 ; wait for bed temp
M109 S210 ; wait for extruder temp
G28 W ; home all without mesh bed level
;G80 ; mesh bed leveling
;G1 Y-3.0 F1000.0 ; go outside pritn area
;G1 X60.0 E9.0  F1000.0 ; intro line
;G1 X100.0 E12.5  F1000.0 ; intro line
; Filament gcode

G21 ; set units to millimeters
G90 ; use absolute coordinates
M83 ; use relative distances for extrusion
T0
G1 E-2.00000 F2100.00000
G1 Z0.200 F7200.000
G1 X70.844 Y165.671 F7200.000
G1 E2.00000 F2100.00000
M204 S1000
G1 F2100
G1 X72.864 Y165.031 E0.06643
G1 X110.664 Y165.031 E1.18519
G1 X112.280 Y165.426 E0.05215
G1 X113.533 Y166.520 E0.05215
G1 X114.173 Y168.540 E0.06643
G1 X114.173 Y246.340 E2.43936
G1 X113.778 Y247.956 E0.05215
G1 X112.684 Y249.208 E0.05215
G1 X110.664 Y249.848 E0.06643
G1 X72.864 Y249.848 E1.18519
G1 X71.248 Y249.454 E0.05215
G1 X69.996 Y248.359 E0.05215
G1 X69.356 Y246.340 E0.06643
G1 X69.356 Y168.540 E2.43936
G1 X69.750 Y166.924 E0.05215
G1 X70.805 Y165.716 E0.05027
G1 X71.208 Y165.882 F7200.000
G1 F2100
G1 X72.864 Y165.408 E0.05400
G1 X110.664 Y165.408 E1.18519
G1 X112.184 Y165.802 E0.04923
G1 X113.322 Y166.884 E0.04923
G1 X113.795 Y168.540 E0.05400
G1 X113.795 Y246.340 E2.43936
G1 X113.402 Y247.859 E0.04923
G1 X112.320 Y248.997 E0.04923
G1 X110.664 Y249.471 E0.05400
G1 X72.864 Y249.471 E1.18519
G1 X71.344 Y249.077 E0.04923
G1 X70.207 Y247.995 E0.04923
G1 X69.733 Y246.340 E0.05400
G1 X69.733 Y168.540 E2.43936
G1 X70.127 Y167.020 E0.04923
G1 X71.167 Y165.925 E0.04735
G1 E-3.00000 F2100.00000
G1 X-30
G1 E-30 F7200
M117insert filament -ok?
M600
G1 E5 F2100
T1
G1 X71.569 Y166.109 F7200.000
G1 F2100
G1 X72.864 Y165.785 E0.04186
G1 X110.664 Y165.785 E1.18519
G1 X112.082 Y166.178 E0.04612
G1 X113.095 Y167.244 E0.04612
G1 X113.418 Y168.540 E0.04186
G1 X113.418 Y246.340 E2.43936
G1 X113.026 Y247.757 E0.04612
G1 X111.959 Y248.770 E0.04612
G1 X110.664 Y249.094 E0.04186
G1 X72.864 Y249.094 E1.18519
G1 X71.447 Y248.701 E0.04612
G1 X70.434 Y247.635 E0.04612
G1 X70.110 Y246.340 E0.04186
G1 X70.110 Y168.540 E2.43936
G1 X70.503 Y167.122 E0.04612
G1 X71.525 Y166.150 E0.04424
G1 X71.924 Y166.356 F7200.000
G1 F2100
G1 X72.864 Y166.163 E0.03008
G1 X110.664 Y166.163 E1.18519
G1 X111.971 Y166.554 E0.04278
G1 X112.848 Y167.600 E0.04278
G1 X113.041 Y168.540 E0.03008
G1 X113.041 Y246.340 E2.43936
G1 X112.650 Y247.647 E0.04278
G1 X111.604 Y248.523 E0.04278
G1 X110.664 Y248.717 E0.03008
G1 X72.864 Y248.717 E1.18519
G1 X71.557 Y248.325 E0.04278
G1 X70.681 Y247.279 E0.04278
G1 X70.487 Y246.340 E0.03008
G1 X70.487 Y168.540 E2.43936
G1 X70.879 Y167.233 E0.04278
G1 X71.878 Y166.395 E0.04090
G1 E-3.00000 F2100.00000
G1 X-30
G1 E-30 F7200
M117insert filament -ok?
M600
G1 E5 F2100
T0
G1 X-30
G1 E-30 F7200
M117insert filament -ok?
M600
G1 E5 F2100
T1
G1 X107.927 Y244.755 F7200.000
G1 E3.00000 F2100.00000
G1 F840
G1 X107.362 Y244.961 E0.01886
G1 X106.764 Y245.031 E0.01886
G1 X106.167 Y244.961 E0.01886
G1 X105.601 Y244.755 E0.01886
G1 X105.099 Y244.424 E0.01886
G1 X104.686 Y243.987 E0.01886
G1 X104.385 Y243.466 E0.01886
G1 X104.212 Y242.890 E0.01886
G1 X104.178 Y242.289 E0.01886
G1 X104.282 Y241.696 E0.01886
G1 X104.520 Y241.144 E0.01886
G1 X104.880 Y240.662 E0.01886
G1 X105.340 Y240.275 E0.01886
G1 X105.878 Y240.005 E0.01886
G1 X106.463 Y239.866 E0.01886
G1 X107.065 Y239.866 E0.01886
G1 X107.313 Y239.925 E0.00798
G1 X107.650 Y240.005 E0.01089
G1 X108.188 Y240.275 E0.01886
G1 X108.649 Y240.662 E0.01886
G1 X109.008 Y241.144 E0.01886
G1 X109.246 Y241.696 E0.01886
G1 X109.351 Y242.289 E0.01886
G1 X109.316 Y242.890 E0.01886
G1 X109.143 Y243.466 E0.01886
G1 X108.843 Y243.987 E0.01886
G1 X108.430 Y244.424 E0.01886
G1 X107.977 Y244.722 E0.01698
G1 X107.757 Y244.416 F7200.000
G1 F840
G1 X107.274 Y244.591 E0.01610
G1 X106.764 Y244.651 E0.01610
G1 X106.254 Y244.591 E0.01610
G1 X105.772 Y244.416 E0.01610
G1 X105.343 Y244.134 E0.01610
G1 X104.990 Y243.760 E0.01610
G1 X104.734 Y243.316 E0.01610
G1 X104.586 Y242.824 E0.01610
G1 X104.557 Y242.311 E0.01610
G1 X104.646 Y241.805 E0.01610
G1 X104.849 Y241.334 E0.01610
G1 X105.156 Y240.922 E0.01610
G1 X105.549 Y240.592 E0.01610
G1 X106.008 Y240.362 E0.01610
G1 X106.507 Y240.243 E0.01610
G1 X107.021 Y240.243 E0.01610
G1 X107.226 Y240.292 E0.00659
G1 X107.521 Y240.362 E0.00951
G1 X107.979 Y240.592 E0.01610
G1 X108.373 Y240.922 E0.01610
G1 X108.679 Y241.334 E0.01610
G1 X108.883 Y241.805 E0.01610
G1 X108.972 Y242.311 E0.01610
G1 X108.942 Y242.824 E0.01610
G1 X108.795 Y243.316 E0.01610
G1 X108.538 Y243.760 E0.01610
G1 X108.186 Y244.134 E0.01610
G1 X107.807 Y244.383 E0.01422
G1 X107.733 Y244.815 F7200.000
G1 X107.063 Y245.375 F7200.000
G1 F840
G1 X107.449 Y245.330 E0.01221
G1 X108.097 Y245.094 E0.02163
G1 X108.674 Y244.715 E0.02163
G1 X109.147 Y244.214 E0.02163
G1 X109.492 Y243.616 E0.02163
G1 X109.690 Y242.955 E0.02163
G1 X109.700 Y242.779 E0.00553
G1 X109.700 Y245.375 E0.08140
G1 X107.123 Y245.375 E0.08081
G1 E-2.00000 F2100.00000
G1 X79.316 Y242.890 F7200.000
G1 E2.00000 F2100.00000
G1 F840
G1 X79.143 Y243.466 E0.01886
G1 X78.843 Y243.987 E0.01886
G1 X78.430 Y244.424 E0.01886
G1 X77.927 Y244.755 E0.01886
G1 X77.362 Y244.961 E0.01886
G1 X76.764 Y245.031 E0.01886
G1 X76.167 Y244.961 E0.01886
G1 X75.601 Y244.755 E0.01886
G1 X75.099 Y244.424 E0.01886
G1 X74.686 Y243.987 E0.01886
G1 X74.385 Y243.466 E0.01886
G1 X74.212 Y242.890 E0.01886
G1 X74.178 Y242.289 E0.01886
G1 X74.282 Y241.696 E0.01886
G1 X74.520 Y241.144 E0.01886
G1 X74.880 Y240.662 E0.01886
G1 X75.340 Y240.275 E0.01886
G1 X75.878 Y240.005 E0.01886
G1 X76.463 Y239.866 E0.01886
G1 X77.065 Y239.866 E0.01886
G1 X77.650 Y240.005 E0.01886
G1 X78.188 Y240.275 E0.01886
G1 X78.649 Y240.662 E0.01886
G1 X79.008 Y241.144 E0.01886
G1 X79.246 Y241.696 E0.01886
G1 X79.351 Y242.289 E0.01886
G1 X79.319 Y242.830 E0.01698
G1 X78.942 Y242.824 F7200.000
G1 F840
G1 X78.795 Y243.316 E0.01610
G1 X78.538 Y243.760 E0.01610
G1 X78.186 Y244.134 E0.01610
G1 X77.757 Y244.416 E0.01610
G1 X77.274 Y244.591 E0.01610
G1 X76.764 Y244.651 E0.01610
G1 X76.254 Y244.591 E0.01610
G1 X75.772 Y244.416 E0.01610
G1 X75.343 Y244.134 E0.01610
G1 X74.990 Y243.760 E0.01610
G1 X74.734 Y243.316 E0.01610
G1 X74.586 Y242.824 E0.01610
G1 X74.557 Y242.311 E0.01610
G1 X74.646 Y241.805 E0.01610
G1 X74.849 Y241.334 E0.01610
G1 X75.156 Y240.922 E0.01610
G1 X75.549 Y240.592 E0.01610
G1 X76.008 Y240.362 E0.01610
G1 X76.507 Y240.243 E0.01610
G1 X77.021 Y240.243 E0.01610
G1 X77.521 Y240.362 E0.01610
G1 X77.979 Y240.592 E0.01610
G1 X78.373 Y240.922 E0.01610
G1 X78.679 Y241.334 E0.01610
G1 X78.883 Y241.805 E0.01610
G1 X78.972 Y242.311 E0.01610
G1 X78.946 Y242.764 E0.01422
G1 X79.052 Y242.916 F7200.000
G1 X76.466 Y245.375 F7200.000
G1 F840
G1 X73.828 Y245.375 E0.08270
G1 X73.828 Y242.779 E0.08140
G1 X73.839 Y242.955 E0.00553
G1 X74.036 Y243.616 E0.02163
G1 X74.381 Y244.214 E0.02163
G1 X74.855 Y244.715 E0.02163
G1 X75.431 Y245.094 E0.02163
G1 X76.079 Y245.330 E0.02163
G1 X76.406 Y245.368 E0.01033
G1 E-2.00000 F2100.00000
G1 X76.764 Y175.031 F7200.000
G1 E2.00000 F2100.00000
G1 F840
G1 X76.167 Y174.961 E0.01886
G1 X75.601 Y174.755 E0.01886
G1 X75.099 Y174.424 E0.01886
G1 X74.686 Y173.987 E0.01886
G1 X74.385 Y173.466 E0.01886
G1 X74.212 Y172.890 E0.01886
G1 X74.178 Y172.289 E0.01886
G1 X74.282 Y171.696 E0.01886
G1 X74.520 Y171.144 E0.01886
G1 X74.880 Y170.661 E0.01886
G1 X75.340 Y170.275 E0.01886
G1 X75.878 Y170.005 E0.01886
G1 X76.463 Y169.866 E0.01886
G1 X77.065 Y169.866 E0.01886
G1 X77.650 Y170.005 E0.01886
G1 X78.188 Y170.275 E0.01886
G1 X78.383 Y170.438 E0.00798
G1 X78.649 Y170.662 E0.01089
G1 X79.008 Y171.144 E0.01886
G1 X79.246 Y171.696 E0.01886
G1 X79.351 Y172.289 E0.01886
G1 X79.316 Y172.890 E0.01886
G1 X79.143 Y173.466 E0.01886
G1 X78.843 Y173.987 E0.01886
G1 X78.430 Y174.424 E0.01886
G1 X77.927 Y174.755 E0.01886
G1 X77.362 Y174.961 E0.01886
G1 X76.824 Y175.024 E0.01698
G1 X76.764 Y174.651 F7200.000
G1 F840
G1 X76.254 Y174.591 E0.01610
G1 X75.772 Y174.416 E0.01610
G1 X75.343 Y174.134 E0.01610
G1 X74.990 Y173.760 E0.01610
G1 X74.734 Y173.316 E0.01610
G1 X74.586 Y172.824 E0.01610
G1 X74.557 Y172.311 E0.01610
G1 X74.646 Y171.805 E0.01610
G1 X74.849 Y171.334 E0.01610
G1 X75.156 Y170.922 E0.01610
G1 X75.549 Y170.592 E0.01610
G1 X76.008 Y170.362 E0.01610
G1 X76.507 Y170.243 E0.01610
G1 X77.021 Y170.243 E0.01610
G1 X77.521 Y170.362 E0.01610
G1 X77.979 Y170.592 E0.01610
G1 X78.140 Y170.727 E0.00659
G1 X78.373 Y170.922 E0.00951
G1 X78.679 Y171.334 E0.01610
G1 X78.883 Y171.805 E0.01610
G1 X78.972 Y172.311 E0.01610
G1 X78.942 Y172.824 E0.01610
G1 X78.795 Y173.316 E0.01610
G1 X78.538 Y173.760 E0.01610
G1 X78.186 Y174.134 E0.01610
G1 X77.757 Y174.416 E0.01610
G1 X77.274 Y174.591 E0.01610
G1 X76.824 Y174.644 E0.01422
G1 X76.560 Y174.995 F7200.000
G1 X73.828 Y172.098 F7200.000
G1 F840
G1 X73.828 Y169.504 E0.08133
G1 X76.357 Y169.504 E0.07928
G1 X75.748 Y169.648 E0.01962
G1 X75.132 Y169.958 E0.02163
G1 X74.603 Y170.401 E0.02163
G1 X74.191 Y170.954 E0.02163
G1 X73.918 Y171.588 E0.02163
G1 X73.839 Y172.038 E0.01436
G1 X73.828 Y172.779 F7200.000
G1 F1680
G1 X73.839 Y172.955 E0.00553
G1 X74.036 Y173.616 E0.02163
G1 X74.381 Y174.214 E0.02163
G1 X74.855 Y174.715 E0.02163
G1 X75.431 Y175.094 E0.02163
G1 X76.079 Y175.330 E0.02163
G1 X76.764 Y175.410 E0.02163
G1 X77.449 Y175.330 E0.02163
G1 X77.794 Y175.205 E0.01149
G1 X78.097 Y175.094 E0.01014
G1 X78.674 Y174.715 E0.02163
G1 X79.147 Y174.214 E0.02163
G1 X79.492 Y173.616 E0.02163
G1 X79.690 Y172.955 E0.02163
G1 X79.730 Y172.267 E0.02163
G1 X79.610 Y171.588 E0.02163
G1 X79.337 Y170.954 E0.02163
G1 X78.925 Y170.401 E0.02163
G1 X78.397 Y169.958 E0.02163
G1 X77.780 Y169.648 E0.02163
G1 X77.171 Y169.504 E0.01962
G1 X106.357 Y169.504 E0.91509
G1 X105.748 Y169.648 E0.01962
G1 X105.132 Y169.958 E0.02163
G1 X104.603 Y170.401 E0.02163
G1 X104.191 Y170.954 E0.02163
G1 X103.918 Y171.588 E0.02163
G1 X103.799 Y172.267 E0.02163
G1 X103.839 Y172.955 E0.02163
G1 X104.036 Y173.616 E0.02163
G1 X104.381 Y174.214 E0.02163
G1 X104.855 Y174.715 E0.02163
G1 X105.431 Y175.094 E0.02163
G1 X106.079 Y175.330 E0.02163
G1 X106.764 Y175.410 E0.02163
G1 X107.449 Y175.330 E0.02163
G1 X108.097 Y175.094 E0.02163
G1 X108.674 Y174.715 E0.02163
G1 X109.147 Y174.214 E0.02163
G1 X109.492 Y173.616 E0.02163
G1 X109.690 Y172.955 E0.02163
G1 X109.700 Y172.779 E0.00553
G1 X109.700 Y242.098 E2.17342
G1 X109.610 Y241.588 E0.01624
G1 X109.337 Y240.954 E0.02163
G1 X108.925 Y240.401 E0.02163
G1 X108.397 Y239.958 E0.02163
G1 X107.780 Y239.648 E0.02163
G1 X107.109 Y239.489 E0.02163
G1 X106.419 Y239.489 E0.02163
G1 X105.748 Y239.648 E0.02163
G1 X105.132 Y239.958 E0.02163
G1 X104.603 Y240.401 E0.02163
G1 X104.191 Y240.954 E0.02163
G1 X103.918 Y241.588 E0.02163
G1 X103.799 Y242.267 E0.02163
G1 X103.839 Y242.955 E0.02163
G1 X104.036 Y243.616 E0.02163
G1 X104.381 Y244.214 E0.02163
G1 X104.855 Y244.715 E0.02163
G1 X105.431 Y245.094 E0.02163
G1 X106.079 Y245.330 E0.02163
G1 X106.466 Y245.375 E0.01221
G1 X77.063 Y245.375 E0.92192
G1 X77.449 Y245.330 E0.01221
G1 X78.097 Y245.094 E0.02163
G1 X78.674 Y244.715 E0.02163
G1 X79.147 Y244.214 E0.02163
G1 X79.492 Y243.616 E0.02163
G1 X79.690 Y242.955 E0.02163
G1 X79.730 Y242.267 E0.02163
G1 X79.610 Y241.588 E0.02163
G1 X79.337 Y240.954 E0.02163
G1 X78.925 Y240.401 E0.02163
G1 X78.397 Y239.958 E0.02163
G1 X77.780 Y239.648 E0.02163
G1 X77.109 Y239.489 E0.02163
G1 X76.419 Y239.489 E0.02163
G1 X75.748 Y239.648 E0.02163
G1 X75.132 Y239.958 E0.02163
G1 X74.603 Y240.401 E0.02163
G1 X74.191 Y240.954 E0.02163
G1 X73.918 Y241.588 E0.02163
G1 X73.828 Y242.098 E0.01624
G1 X73.828 Y172.839 E2.17154
G1 E-2.00000 F2100.00000
G1 X104.178 Y172.289 F7200.000
G1 E2.00000 F2100.00000
G1 F840
G1 X104.282 Y171.696 E0.01886
G1 X104.520 Y171.144 E0.01886
G1 X104.880 Y170.661 E0.01886
G1 X105.340 Y170.275 E0.01886
G1 X105.878 Y170.005 E0.01886
G1 X106.463 Y169.866 E0.01886
G1 X107.065 Y169.866 E0.01886
G1 X107.650 Y170.005 E0.01886
G1 X108.188 Y170.275 E0.01886
G1 X108.649 Y170.662 E0.01886
G1 X109.008 Y171.144 E0.01886
G1 X109.246 Y171.696 E0.01886
G1 X109.351 Y172.289 E0.01886
G1 X109.316 Y172.890 E0.01886
G1 X109.143 Y173.466 E0.01886
G1 X108.843 Y173.987 E0.01886
G1 X108.430 Y174.424 E0.01886
G1 X107.927 Y174.755 E0.01886
G1 X107.362 Y174.961 E0.01886
G1 X106.764 Y175.031 E0.01886
G1 X106.167 Y174.961 E0.01886
G1 X105.601 Y174.755 E0.01886
G1 X105.099 Y174.424 E0.01886
G1 X104.686 Y173.987 E0.01886
G1 X104.385 Y173.466 E0.01886
G1 X104.212 Y172.890 E0.01886
G1 X104.181 Y172.349 E0.01698
G1 X104.557 Y172.311 F7200.000
G1 F840
G1 X104.646 Y171.805 E0.01610
G1 X104.849 Y171.334 E0.01610
G1 X105.156 Y170.922 E0.01610
G1 X105.549 Y170.592 E0.01610
G1 X106.008 Y170.362 E0.01610
G1 X106.507 Y170.243 E0.01610
G1 X107.021 Y170.243 E0.01610
G1 X107.521 Y170.362 E0.01610
G1 X107.979 Y170.592 E0.01610
G1 X108.105 Y170.697 E0.00514
G1 X108.373 Y170.922 E0.01096
G1 X108.679 Y171.334 E0.01610
G1 X108.883 Y171.805 E0.01610
G1 X108.972 Y172.311 E0.01610
G1 X108.942 Y172.824 E0.01610
G1 X108.795 Y173.316 E0.01610
G1 X108.538 Y173.760 E0.01610
G1 X108.186 Y174.134 E0.01610
G1 X107.757 Y174.416 E0.01610
G1 X107.274 Y174.591 E0.01610
G1 X106.764 Y174.651 E0.01610
G1 X106.254 Y174.591 E0.01610
G1 X105.772 Y174.416 E0.01610
G1 X105.343 Y174.134 E0.01610
G1 X104.990 Y173.760 E0.01610
G1 X104.734 Y173.316 E0.01610
G1 X104.586 Y172.824 E0.01610
G1 X104.560 Y172.371 E0.01422
G1 X104.222 Y172.091 F7200.000
G1 X107.171 Y169.504 F7200.000
G1 F840
G1 X109.700 Y169.504 E0.07928
G1 X109.700 Y172.098 E0.08133
G1 X109.610 Y171.588 E0.01624
G1 X109.337 Y170.954 E0.02163
G1 X108.925 Y170.401 E0.02163
G1 X108.397 Y169.958 E0.02163
G1 X107.780 Y169.648 E0.02163
G1 X107.230 Y169.518 E0.01773
G1 X110.077 Y169.127 F7200.000
G1 F1680
G1 X110.077 Y245.753 E2.40255
G1 X73.451 Y245.753 E1.14838
G1 X73.451 Y169.127 E2.40255
G1 X110.017 Y169.127 E1.14650
G1 X110.454 Y168.750 F7200.000
G1 F1260
G1 X110.454 Y246.130 E2.42620
G1 X73.074 Y246.130 E1.17202
G1 X73.074 Y168.750 E2.42620
G1 X110.394 Y168.750 E1.17014
G1 X110.394 Y169.145 F7200.000
G1 X109.040 Y169.947 F7200.000
G1 F1680
G1 X108.825 Y169.947 E0.00807
G1 X108.942 Y170.045 E0.00573
G1 X109.173 Y169.814 E0.01230
G1 X109.390 Y169.814 E0.00816
G1 X109.390 Y170.237 E0.01592
G1 X109.256 Y170.371 E0.00710
G1 X109.493 Y174.029 F7200.000
G1 F1680
G1 X109.477 Y174.088 E0.00013
G1 X109.414 Y174.173 E0.00023
G1 E-2.00000 F2100.00000
G1 X79.787 Y173.788 F7200.000
G1 E2.00000 F2100.00000
G1 F1680
G1 X83.761 Y169.814 E0.17632
G1 X83.228 Y169.814 E0.01674
G1 X80.000 Y173.042 E0.14323
G1 X80.033 Y172.476 E0.01781
