; generated by Slic3r 1.3.1-dev on 2018-10-15 at 13:25:34

; Filament notes: 
; Test mit verschiedenen Temperaturen:
; 
; erste Lage wird problemlos gedruckt. Danach kommt der Extruder ins stocken
; --> es gibt einen Pfropfen, der die Düse verstopft.
; 
; Test mit 180°C
; 
; ==>wenn zu nahe am Bett prozessiert wird kann die Düse verstopfen.
; 
; external perimeters extrusion width = 0.45mm (2.44mm^3/s)
; perimeters extrusion width = 0.45mm (3.26mm^3/s)
; infill extrusion width = 0.45mm (4.88mm^3/s)
; solid infill extrusion width = 0.45mm (3.26mm^3/s)
; top infill extrusion width = 0.40mm (2.14mm^3/s)

; external perimeters extrusion width = 0.45mm (2.44mm^3/s)
; perimeters extrusion width = 0.45mm (3.26mm^3/s)
; infill extrusion width = 0.45mm (4.88mm^3/s)
; solid infill extrusion width = 0.45mm (3.26mm^3/s)
; top infill extrusion width = 0.40mm (2.14mm^3/s)

;M115 U3.0.10 ; tell printer latest fw version
M83  ; extruder relative mode
M104 S210 ; set extruder temp
M140 S60 ; set bed temp
M190 S60 ; wait for bed temp
M109 S210 ; wait for extruder temp
G28 W ; home all without mesh bed level
;G80 ; mesh bed leveling
;G1 Y-3.0 F1000.0 ; go outside pritn area
;G1 X60.0 E9.0  F1000.0 ; intro line
;G1 X100.0 E12.5  F1000.0 ; intro line
; Filament gcode

G21 ; set units to millimeters
G90 ; use absolute coordinates
M83 ; use relative distances for extrusion
T0
G1 E-2.00000 F2100.00000
G1 Z0.200 F7200.000
G1 X54.300 Y171.846 F7200.000
G1 E2.00000 F2100.00000
M204 S1000
G1 F2100
G1 X56.320 Y171.206 E0.06643
G1 X96.120 Y171.206 E1.24790
G1 X97.736 Y171.600 E0.05215
G1 X98.988 Y172.695 E0.05215
G1 X99.628 Y174.714 E0.06643
G1 X99.628 Y254.514 E2.50207
G1 X99.234 Y256.130 E0.05215
G1 X98.140 Y257.383 E0.05215
G1 X96.120 Y258.023 E0.06643
G1 X56.320 Y258.023 E1.24790
G1 X54.704 Y257.628 E0.05215
G1 X53.451 Y256.534 E0.05215
G1 X52.811 Y254.514 E0.06643
G1 X52.811 Y174.714 E2.50207
G1 X53.206 Y173.098 E0.05215
G1 X54.261 Y171.891 E0.05027
G1 X54.664 Y172.057 F7200.000
G1 F2100
G1 X56.320 Y171.583 E0.05400
G1 X96.120 Y171.583 E1.24790
G1 X97.640 Y171.977 E0.04923
G1 X98.777 Y173.059 E0.04923
G1 X99.251 Y174.714 E0.05400
G1 X99.251 Y254.514 E2.50207
G1 X98.857 Y256.034 E0.04923
G1 X97.776 Y257.172 E0.04923
G1 X96.120 Y257.646 E0.05400
G1 X56.320 Y257.646 E1.24790
G1 X54.800 Y257.252 E0.04923
G1 X53.662 Y256.170 E0.04923
G1 X53.189 Y254.514 E0.05400
G1 X53.189 Y174.714 E2.50207
G1 X53.582 Y173.194 E0.04923
G1 X54.623 Y172.100 E0.04735
G1 E-3.00000 F2100.00000
G1 E5 F2100
T1
G1 X55.025 Y172.284 F7200.000
G1 F2100
G1 X56.320 Y171.960 E0.04186
G1 X96.120 Y171.960 E1.24790
G1 X97.537 Y172.353 E0.04612
G1 X98.550 Y173.419 E0.04612
G1 X98.874 Y174.714 E0.04186
G1 X98.874 Y254.514 E2.50207
G1 X98.481 Y255.932 E0.04612
G1 X97.415 Y256.945 E0.04612
G1 X96.120 Y257.268 E0.04186
G1 X56.320 Y257.268 E1.24790
G1 X54.902 Y256.876 E0.04612
G1 X53.889 Y255.809 E0.04612
G1 X53.566 Y254.514 E0.04186
G1 X53.566 Y174.714 E2.50207
G1 X53.958 Y173.297 E0.04612
G1 X54.981 Y172.325 E0.04424
G1 X55.380 Y172.531 F7200.000
G1 F2100
G1 X56.320 Y172.337 E0.03008
G1 X96.120 Y172.337 E1.24790
G1 X97.427 Y172.729 E0.04278
G1 X98.303 Y173.775 E0.04278
G1 X98.497 Y174.714 E0.03008
G1 X98.497 Y254.514 E2.50207
G1 X98.105 Y255.821 E0.04278
G1 X97.060 Y256.698 E0.04278
G1 X96.120 Y256.891 E0.03008
G1 X56.320 Y256.891 E1.24790
G1 X55.013 Y256.500 E0.04278
G1 X54.136 Y255.454 E0.04278
G1 X53.943 Y254.514 E0.03008
G1 X53.943 Y174.714 E2.50207
G1 X54.334 Y173.407 E0.04278
G1 X55.334 Y172.569 E0.04090
G1 E-3.00000 F2100.00000
T0
G1 X91.905 Y252.505 F7200.000
G1 E3.00000 F2100.00000
G1 F840
G1 X91.220 Y252.585 E0.02163
G1 X90.535 Y252.505 E0.02163
G1 X89.887 Y252.269 E0.02163
G1 X89.310 Y251.890 E0.02163
G1 X88.837 Y251.388 E0.02163
G1 X88.492 Y250.791 E0.02163
G1 X88.294 Y250.130 E0.02163
G1 X88.254 Y249.442 E0.02163
G1 X88.374 Y248.762 E0.02163
G1 X88.647 Y248.129 E0.02163
G1 X89.059 Y247.576 E0.02163
G1 X89.587 Y247.132 E0.02163
G1 X90.204 Y246.823 E0.02163
G1 X90.875 Y246.664 E0.02163
G1 X91.565 Y246.664 E0.02163
G1 X92.236 Y246.823 E0.02163
G1 X92.852 Y247.132 E0.02163
G1 X93.381 Y247.576 E0.02163
G1 X93.793 Y248.129 E0.02163
G1 X94.066 Y248.762 E0.02163
G1 X94.185 Y249.442 E0.02163
G1 X94.145 Y250.130 E0.02163
G1 X93.948 Y250.791 E0.02163
G1 X93.603 Y251.388 E0.02163
G1 X93.129 Y251.890 E0.02163
G1 X92.553 Y252.269 E0.02163
G1 X91.961 Y252.484 E0.01975
G1 X91.817 Y252.136 F7200.000
G1 F840
G1 X91.220 Y252.205 E0.01886
G1 X90.622 Y252.136 E0.01886
G1 X90.057 Y251.930 E0.01886
G1 X89.554 Y251.599 E0.01886
G1 X89.141 Y251.162 E0.01886
G1 X88.841 Y250.641 E0.01886
G1 X88.668 Y250.064 E0.01886
G1 X88.633 Y249.464 E0.01886
G1 X88.738 Y248.871 E0.01886
G1 X88.976 Y248.319 E0.01886
G1 X89.335 Y247.836 E0.01886
G1 X89.796 Y247.449 E0.01886
G1 X90.334 Y247.179 E0.01886
G1 X90.919 Y247.041 E0.01886
G1 X91.521 Y247.041 E0.01886
G1 X92.106 Y247.179 E0.01886
G1 X92.644 Y247.449 E0.01886
G1 X93.104 Y247.836 E0.01886
G1 X93.464 Y248.319 E0.01886
G1 X93.702 Y248.871 E0.01886
G1 X93.806 Y249.464 E0.01886
G1 X93.772 Y250.064 E0.01886
G1 X93.599 Y250.641 E0.01886
G1 X93.298 Y251.162 E0.01886
G1 X92.885 Y251.599 E0.01886
G1 X92.383 Y251.930 E0.01886
G1 X91.874 Y252.115 E0.01698
G1 X91.730 Y251.766 F7200.000
G1 F840
G1 X91.220 Y251.826 E0.01610
G1 X90.710 Y251.766 E0.01610
G1 X90.227 Y251.590 E0.01610
G1 X89.798 Y251.308 E0.01610
G1 X89.446 Y250.935 E0.01610
G1 X89.189 Y250.490 E0.01610
G1 X89.042 Y249.998 E0.01610
G1 X89.012 Y249.486 E0.01610
G1 X89.101 Y248.980 E0.01610
G1 X89.305 Y248.509 E0.01610
G1 X89.611 Y248.097 E0.01610
G1 X90.005 Y247.767 E0.01610
G1 X90.463 Y247.536 E0.01610
G1 X90.963 Y247.418 E0.01610
G1 X91.477 Y247.418 E0.01610
G1 X91.976 Y247.536 E0.01610
G1 X92.435 Y247.767 E0.01610
G1 X92.828 Y248.097 E0.01610
G1 X93.135 Y248.509 E0.01610
G1 X93.338 Y248.980 E0.01610
G1 X93.427 Y249.486 E0.01610
G1 X93.398 Y249.998 E0.01610
G1 X93.250 Y250.490 E0.01610
G1 X92.994 Y250.935 E0.01610
G1 X92.641 Y251.308 E0.01610
G1 X92.212 Y251.590 E0.01610
G1 X91.786 Y251.746 E0.01422
G1 X91.615 Y252.149 F7200.000
G1 E-2.00000 F2100.00000
G1 X64.145 Y250.130 F7200.000
G1 E2.00000 F2100.00000
G1 F840
G1 X63.948 Y250.791 E0.02163
G1 X63.603 Y251.388 E0.02163
G1 X63.129 Y251.890 E0.02163
G1 X62.553 Y252.269 E0.02163
G1 X61.905 Y252.505 E0.02163
G1 X61.220 Y252.585 E0.02163
G1 X60.535 Y252.505 E0.02163
G1 X59.887 Y252.269 E0.02163
G1 X59.310 Y251.890 E0.02163
G1 X58.837 Y251.388 E0.02163
G1 X58.492 Y250.791 E0.02163
G1 X58.294 Y250.130 E0.02163
G1 X58.254 Y249.442 E0.02163
G1 X58.374 Y248.762 E0.02163
G1 X58.647 Y248.129 E0.02163
G1 X59.059 Y247.576 E0.02163
G1 X59.587 Y247.132 E0.02163
G1 X60.204 Y246.823 E0.02163
G1 X60.875 Y246.664 E0.02163
G1 X61.565 Y246.664 E0.02163
G1 X62.236 Y246.823 E0.02163
G1 X62.852 Y247.132 E0.02163
G1 X63.381 Y247.576 E0.02163
G1 X63.793 Y248.129 E0.02163
G1 X64.066 Y248.762 E0.02163
G1 X64.185 Y249.442 E0.02163
G1 X64.149 Y250.070 E0.01975
G1 X63.772 Y250.064 F7200.000
G1 F840
G1 X63.599 Y250.641 E0.01886
G1 X63.298 Y251.162 E0.01886
G1 X62.885 Y251.599 E0.01886
G1 X62.383 Y251.930 E0.01886
G1 X61.817 Y252.136 E0.01886
G1 X61.220 Y252.205 E0.01886
G1 X60.622 Y252.136 E0.01886
G1 X60.057 Y251.930 E0.01886
G1 X59.554 Y251.599 E0.01886
G1 X59.141 Y251.162 E0.01886
G1 X58.841 Y250.641 E0.01886
G1 X58.668 Y250.064 E0.01886
G1 X58.633 Y249.464 E0.01886
G1 X58.738 Y248.871 E0.01886
G1 X58.976 Y248.319 E0.01886
G1 X59.335 Y247.836 E0.01886
G1 X59.796 Y247.449 E0.01886
G1 X60.334 Y247.179 E0.01886
G1 X60.919 Y247.041 E0.01886
G1 X61.521 Y247.041 E0.01886
G1 X62.106 Y247.179 E0.01886
G1 X62.644 Y247.449 E0.01886
G1 X63.104 Y247.836 E0.01886
G1 X63.464 Y248.319 E0.01886
G1 X63.702 Y248.871 E0.01886
G1 X63.806 Y249.464 E0.01886
G1 X63.775 Y250.004 E0.01698
G1 X63.398 Y249.998 F7200.000
G1 F840
G1 X63.250 Y250.490 E0.01610
G1 X62.994 Y250.935 E0.01610
G1 X62.641 Y251.308 E0.01610
G1 X62.212 Y251.590 E0.01610
G1 X61.730 Y251.766 E0.01610
G1 X61.220 Y251.826 E0.01610
G1 X60.710 Y251.766 E0.01610
G1 X60.227 Y251.590 E0.01610
G1 X59.798 Y251.308 E0.01610
G1 X59.446 Y250.935 E0.01610
G1 X59.189 Y250.490 E0.01610
G1 X59.042 Y249.998 E0.01610
G1 X59.012 Y249.486 E0.01610
G1 X59.101 Y248.980 E0.01610
G1 X59.305 Y248.509 E0.01610
G1 X59.611 Y248.097 E0.01610
G1 X60.005 Y247.767 E0.01610
G1 X60.463 Y247.536 E0.01610
G1 X60.963 Y247.418 E0.01610
G1 X61.477 Y247.418 E0.01610
G1 X61.976 Y247.536 E0.01610
G1 X62.435 Y247.767 E0.01610
G1 X62.828 Y248.097 E0.01610
G1 X63.135 Y248.509 E0.01610
G1 X63.338 Y248.980 E0.01610
G1 X63.427 Y249.486 E0.01610
G1 X63.401 Y249.938 E0.01422
G1 X63.704 Y250.255 F7200.000
G1 E-2.00000 F2100.00000
G1 X61.220 Y182.585 F7200.000
G1 E2.00000 F2100.00000
G1 F840
G1 X60.535 Y182.505 E0.02163
G1 X59.887 Y182.269 E0.02163
G1 X59.310 Y181.890 E0.02163
G1 X58.837 Y181.388 E0.02163
G1 X58.492 Y180.791 E0.02163
G1 X58.294 Y180.130 E0.02163
G1 X58.271 Y179.724 E0.01276
G1 X58.254 Y179.442 E0.00887
G1 X58.374 Y178.762 E0.02163
G1 X58.647 Y178.129 E0.02163
G1 X59.059 Y177.576 E0.02163
G1 X59.587 Y177.132 E0.02163
G1 X60.204 Y176.823 E0.02163
G1 X60.875 Y176.664 E0.02163
G1 X61.565 Y176.664 E0.02163
G1 X62.236 Y176.823 E0.02163
G1 X62.852 Y177.132 E0.02163
G1 X63.381 Y177.576 E0.02163
G1 X63.793 Y178.129 E0.02163
G1 X64.066 Y178.762 E0.02163
G1 X64.185 Y179.442 E0.02163
G1 X64.145 Y180.130 E0.02163
G1 X63.948 Y180.791 E0.02163
G1 X63.603 Y181.388 E0.02163
G1 X63.129 Y181.890 E0.02163
G1 X62.553 Y182.269 E0.02163
G1 X61.905 Y182.505 E0.02163
G1 X61.279 Y182.578 E0.01975
G1 X61.220 Y182.205 F7200.000
G1 F840
G1 X60.622 Y182.136 E0.01886
G1 X60.057 Y181.930 E0.01886
G1 X59.554 Y181.599 E0.01886
G1 X59.141 Y181.162 E0.01886
G1 X58.841 Y180.641 E0.01886
G1 X58.668 Y180.064 E0.01886
G1 X58.647 Y179.702 E0.01137
G1 X58.633 Y179.464 E0.00749
G1 X58.738 Y178.871 E0.01886
G1 X58.976 Y178.319 E0.01886
G1 X59.335 Y177.836 E0.01886
G1 X59.796 Y177.449 E0.01886
G1 X60.334 Y177.179 E0.01886
G1 X60.919 Y177.041 E0.01886
G1 X61.521 Y177.041 E0.01886
G1 X62.106 Y177.179 E0.01886
G1 X62.644 Y177.449 E0.01886
G1 X63.104 Y177.836 E0.01886
G1 X63.464 Y178.319 E0.01886
G1 X63.702 Y178.871 E0.01886
G1 X63.806 Y179.464 E0.01886
G1 X63.772 Y180.064 E0.01886
G1 X63.599 Y180.641 E0.01886
G1 X63.298 Y181.162 E0.01886
G1 X62.885 Y181.599 E0.01886
G1 X62.383 Y181.930 E0.01886
G1 X61.817 Y182.136 E0.01886
G1 X61.279 Y182.198 E0.01698
G1 X61.220 Y181.826 F7200.000
G1 F840
G1 X60.710 Y181.766 E0.01610
G1 X60.227 Y181.590 E0.01610
G1 X59.798 Y181.308 E0.01610
G1 X59.446 Y180.935 E0.01610
G1 X59.189 Y180.490 E0.01610
G1 X59.042 Y179.998 E0.01610
G1 X59.023 Y179.680 E0.00999
G1 X59.012 Y179.486 E0.00611
G1 X59.101 Y178.980 E0.01610
G1 X59.305 Y178.509 E0.01610
G1 X59.611 Y178.097 E0.01610
G1 X60.005 Y177.767 E0.01610
G1 X60.463 Y177.536 E0.01610
G1 X60.963 Y177.418 E0.01610
G1 X61.477 Y177.418 E0.01610
G1 X61.976 Y177.536 E0.01610
G1 X62.435 Y177.767 E0.01610
G1 X62.828 Y178.097 E0.01610
G1 X63.135 Y178.509 E0.01610
G1 X63.338 Y178.980 E0.01610
G1 X63.427 Y179.486 E0.01610
G1 X63.398 Y179.998 E0.01610
G1 X63.250 Y180.490 E0.01610
G1 X62.994 Y180.935 E0.01610
G1 X62.641 Y181.308 E0.01610
G1 X62.212 Y181.590 E0.01610
G1 X61.730 Y181.766 E0.01610
G1 X61.279 Y181.819 E0.01422
G1 X61.020 Y182.172 F7200.000
G1 E-2.00000 F2100.00000
G1 X88.294 Y180.130 F7200.000
G1 E2.00000 F2100.00000
G1 F840
G1 X88.254 Y179.442 E0.02163
G1 X88.374 Y178.762 E0.02163
G1 X88.647 Y178.129 E0.02163
G1 X89.059 Y177.576 E0.02163
G1 X89.587 Y177.132 E0.02163
G1 X90.204 Y176.823 E0.02163
G1 X90.875 Y176.664 E0.02163
G1 X91.565 Y176.664 E0.02163
G1 X92.236 Y176.823 E0.02163
G1 X92.852 Y177.132 E0.02163
G1 X93.381 Y177.576 E0.02163
G1 X93.793 Y178.129 E0.02163
G1 X94.066 Y178.762 E0.02163
G1 X94.185 Y179.442 E0.02163
G1 X94.145 Y180.130 E0.02163
G1 X93.948 Y180.791 E0.02163
G1 X93.603 Y181.388 E0.02163
G1 X93.129 Y181.890 E0.02163
G1 X92.553 Y182.269 E0.02163
G1 X91.905 Y182.505 E0.02163
G1 X91.220 Y182.585 E0.02163
G1 X90.535 Y182.505 E0.02163
G1 X89.887 Y182.269 E0.02163
G1 X89.310 Y181.890 E0.02163
G1 X88.837 Y181.388 E0.02163
G1 X88.492 Y180.791 E0.02163
G1 X88.311 Y180.188 E0.01975
G1 X88.668 Y180.064 F7200.000
G1 F840
G1 X88.633 Y179.464 E0.01886
G1 X88.738 Y178.871 E0.01886
G1 X88.976 Y178.319 E0.01886
G1 X89.335 Y177.836 E0.01886
G1 X89.796 Y177.449 E0.01886
G1 X90.334 Y177.179 E0.01886
G1 X90.919 Y177.041 E0.01886
G1 X91.521 Y177.041 E0.01886
G1 X92.106 Y177.179 E0.01886
G1 X92.644 Y177.449 E0.01886
G1 X93.104 Y177.836 E0.01886
G1 X93.464 Y178.319 E0.01886
G1 X93.702 Y178.871 E0.01886
G1 X93.806 Y179.464 E0.01886
G1 X93.772 Y180.064 E0.01886
G1 X93.599 Y180.641 E0.01886
G1 X93.298 Y181.162 E0.01886
G1 X92.885 Y181.599 E0.01886
G1 X92.383 Y181.930 E0.01886
G1 X91.817 Y182.136 E0.01886
G1 X91.220 Y182.205 E0.01886
G1 X90.622 Y182.136 E0.01886
G1 X90.057 Y181.930 E0.01886
G1 X89.554 Y181.599 E0.01886
G1 X89.141 Y181.162 E0.01886
G1 X88.841 Y180.641 E0.01886
G1 X88.685 Y180.122 E0.01698
G1 X89.042 Y179.998 F7200.000
G1 F840
G1 X89.012 Y179.486 E0.01610
G1 X89.101 Y178.980 E0.01610
G1 X89.305 Y178.509 E0.01610
G1 X89.611 Y178.097 E0.01610
G1 X90.005 Y177.767 E0.01610
G1 X90.463 Y177.536 E0.01610
G1 X90.963 Y177.418 E0.01610
G1 X91.477 Y177.418 E0.01610
G1 X91.976 Y177.536 E0.01610
G1 X92.435 Y177.767 E0.01610
G1 X92.828 Y178.097 E0.01610
G1 X93.135 Y178.509 E0.01610
G1 X93.338 Y178.980 E0.01610
G1 X93.427 Y179.486 E0.01610
G1 X93.398 Y179.998 E0.01610
G1 X93.250 Y180.490 E0.01610
G1 X92.994 Y180.935 E0.01610
G1 X92.641 Y181.308 E0.01610
G1 X92.212 Y181.590 E0.01610
G1 X91.730 Y181.766 E0.01610
G1 X91.220 Y181.826 E0.01610
G1 X90.710 Y181.766 E0.01610
G1 X90.227 Y181.590 E0.01610
G1 X89.798 Y181.308 E0.01610
G1 X89.446 Y180.935 E0.01610
G1 X89.189 Y180.490 E0.01610
G1 X89.059 Y180.056 E0.01422
G1 X88.666 Y179.861 F7200.000
G1 E-2.00000 F2100.00000
G1 X95.156 Y175.678 F7200.000
G1 E2.00000 F2100.00000
G1 F1680
G1 X95.156 Y253.550 E2.44161
G1 X57.284 Y253.550 E1.18744
G1 X57.284 Y175.678 E2.44161
G1 X95.096 Y175.678 E1.18556
G1 X95.533 Y175.301 F7200.000
G1 F1680
G1 X95.533 Y253.927 E2.46526
G1 X56.907 Y253.927 E1.21109
G1 X56.907 Y175.301 E2.46526
G1 X95.473 Y175.301 E1.20920
G1 X95.910 Y174.924 F7200.000
G1 F1260
G1 X95.910 Y254.304 E2.48890
G1 X56.530 Y254.304 E1.23473
G1 X56.530 Y174.924 E2.48890
G1 X95.850 Y174.924 E1.23285
G1 X95.849 Y175.320 F7200.000
G1 E-2.00000 F2100.00000
G1 X94.071 Y181.283 F7200.000
G1 E2.00000 F2100.00000
G1 F1680
G1 X94.845 Y180.508 E0.03438
G1 X94.845 Y179.975 E0.01675
G1 X94.408 Y180.412 E0.01941
G1 X94.453 Y180.263 E0.00489
G1 X94.479 Y179.807 E0.01433
G1 X94.845 Y179.441 E0.01625
G1 X94.845 Y178.907 E0.01675
G1 X94.463 Y179.289 E0.01696
G1 X94.383 Y178.835 E0.01446
G1 X94.845 Y178.373 E0.02051
G1 X94.845 Y177.839 E0.01675
G1 X94.243 Y178.442 E0.02674
G1 X94.082 Y178.069 E0.01275
G1 X94.845 Y177.306 E0.03388
G1 X94.845 Y176.772 E0.01675
G1 X93.865 Y177.752 E0.04349
G1 X93.638 Y177.446 E0.01197
G1 X94.845 Y176.238 E0.05360
G1 X94.845 Y175.989 E0.00782
G1 X94.561 Y175.989 E0.00893
G1 X93.360 Y177.189 E0.05327
G1 X93.070 Y176.945 E0.01189
G1 X94.027 Y175.989 E0.04246
G1 X93.493 Y175.989 E0.01675
G1 X92.732 Y176.750 E0.03378
G1 X92.376 Y176.572 E0.01248
G1 X92.959 Y175.989 E0.02586
G1 X92.425 Y175.989 E0.01675
G1 X91.962 Y176.453 E0.02059
G1 X91.527 Y176.353 E0.01399
G1 X91.892 Y175.989 E0.01617
G1 X91.358 Y175.989 E0.01675
G1 X90.993 Y176.353 E0.01617
G1 X90.764 Y176.353 E0.00719
G1 X90.365 Y176.448 E0.01288
G1 X90.824 Y175.989 E0.02038
